!!!!SEGMENT: pl-sa--299-a-vii-59_lechleitner-ferdinand-simon-mottetto-de-resurrectione.krn
!!!id: 17xx:421
!!!COM: Lechleitner, Ferdinand Simon
!!!OTL: Mottetto de Resurrectione
!!!PDT:
!!!SMS-siglum: PL-SA
!!!SMS-shelfmark: 299/A VII 59
!!!NIFC-rismID: 1001039707
!!!URL-scan: http://bc.bdsandomierz.pl/dlibra/publication/1795/edition/1776/content
!!!ONB-nifc:
**kern	**fb	**kern	**kern	**kern	**text	**kern	**text	**kern	**text	**kern	**text	**kern	**text	**kern	**kern
*part10	*	*part9	*part8	*part7	*part7	*part6	*part6	*part5	*part5	*part4	*part4	*part3	*part3	*part2	*part1
*group	*	*group3	*group3	*group2	*group2	*group2	*group2	*group2	*group2	*group2	*group2	*group2	*group2	*group1	*group1
*staff10	*	*staff9	*staff8	*staff7	*staff7	*staff6	*staff6	*staff5	*staff5	*staff4	*staff4	*staff3	*staff3	*staff2	*staff1
*I"Organo	*	*I"Violino 2do	*I"Violino 1mo	*I"Baſso	*	*I"Tenore	*	*I"Alto	*	*I"Canto 2do	*	*I"Canto 1mo	*	*I"Clarino 2do	*I"Clarino 1mo
*I'org	*	*I'vl 2	*I'vl 1	*I'B	*	*I'T	*	*I'A	*	*I'S 2	*	*I'S 1	*	*I'clno 2	*I'clno 1
*clefF4	*	*clefG2	*clefG2	*clefF4	*	*clefC4	*	*clefC3	*	*clefC1	*	*clefC1	*	*clefG2	*clefG2
*	*	*	*	*	*	*	*	*	*	*	*	*	*	*ITrd1c2	*ITrd1c2
*k[b-e-]	*	*k[b-e-]	*k[b-e-]	*k[b-e-]	*	*k[b-e-]	*	*k[b-e-]	*	*k[b-e-]	*	*k[b-e-]	*	*k[b-e-]	*k[b-e-]
*M4/4	*	*M4/4	*M4/4	*M4/4	*	*M4/4	*	*M4/4	*	*M4/4	*	*M4/4	*	*M4/4	*M4/4
*met(c)	*	*met(c)	*met(c)	*met(c)	*	*met(c)	*	*met(c)	*	*met(c)	*	*met(c)	*	*met(c)	*met(c)
=1	=1	=1	=1	=1	=1	=1	=1	=1	=1	=1	=1	=1	=1	=1	=1
*	*above	*	*	*	*	*	*	*	*	*	*	*	*	*	*
!LO:TX:b:i:t=Victor ſubactis inferis	!	!	!LO:TX:b:t=Victor ſubactis	!	!	!	!	!	!	!	!	!	!	!	!LO:TX:b:i:t=Victor subactis
!LO:TX:a:i:t=Solo	!	!LO:TX:b:t=Victor ſubactis	!LO:TX:a:t=solo	!	!	!LO:TX:b:t=Victor ſubactis	!	!LO:TX:b:t=Victor ſubactis	!	!	!	!	!	!LO:TX:a:i:t=Largo	!LO:TX:a:i:t=Solo
!LO:TX:a:i:t=Largo	!	!LO:TX:a:i:t=Largo	!LO:TX:a:t=Largo	!LO:TX:a:i:t=Largo	!	!LO:TX:a:i:t=Largo	!	!LO:TX:a:i:t=Largo	!	!LO:TX:a:i:t=Largo	!	!LO:TX:a:i:t=Largo	!	!LO:TX:b:i:t=Victor subactis	!LO:TX:a:i:t=Largo
!	!	!	!	!	!	!	!	!	!	!LO:TX:a:t=P:problem:w źródle bemole przykluczowe: ee- b- e-, zapisane jeden pod drugim	!	!LO:TX:a:t=P:problem:w źródle bemole przykluczowe: ee- b- e-, zapisane jeden pod drugim	!	!	!
!LO:TX:a:t=P:problem:w źródle bemole przykluczowe: B- E- BB-, zapisane jeden pod drugim	!	!	!	!LO:TX:a:t=P:problem:w źródle bemole przykluczowe: B- E- BB-, zapisane jeden pod drugim	!	!	!	!	!	!	!	!	!	!	!
4BB-/	.	1r	16b-\LL	00r	.	00r	.	00r	.	00r	.	00r	.	1r	16b-\LL
.	.	.	16a\	.	.	.	.	.	.	.	.	.	.	.	16f\
.	.	.	16b-\	.	.	.	.	.	.	.	.	.	.	.	16b-\
.	.	.	16cc\JJ	.	.	.	.	.	.	.	.	.	.	.	16cc\JJ
8r	.	.	16b-\LL	.	.	.	.	.	.	.	.	.	.	.	16b-\LL
.	.	.	16dd\	.	.	.	.	.	.	.	.	.	.	.	16dd\
8B-\	.	.	16cc\	.	.	.	.	.	.	.	.	.	.	.	16cc\
.	.	.	16b-\JJ	.	.	.	.	.	.	.	.	.	.	.	16b-\JJ
4F\	.	.	16cc\LL	.	.	.	.	.	.	.	.	.	.	.	16cc\LL
.	.	.	16b-\	.	.	.	.	.	.	.	.	.	.	.	16b-\
.	.	.	16cc\	.	.	.	.	.	.	.	.	.	.	.	16cc\
.	.	.	16dd\JJ	.	.	.	.	.	.	.	.	.	.	.	16dd\JJ
8r	.	.	16cc\LL	.	.	.	.	.	.	.	.	.	.	.	16cc\LL
.	.	.	16ee-\	.	.	.	.	.	.	.	.	.	.	.	16ee-\
8F\	.	.	16dd\	.	.	.	.	.	.	.	.	.	.	.	16dd\
.	.	.	16cc\JJ	.	.	.	.	.	.	.	.	.	.	.	16cc\JJ
=2	=2	=2-	=2	=2	=2	=2	=2	=2	=2	=2	=2	=2	=2	=2-	=2
!	!	!LO:TX:a:t=solo	!	!	!	!	!	!	!	!	!	!	!	!LO:TX:a:i:t=Solo	!
4BB-/	.	16b-/LL	16dd\LL	.	.	.	.	.	.	.	.	.	.	16b-\LL	16dd\LL
.	.	16a/	16cc\	.	.	.	.	.	.	.	.	.	.	16f\	16cc\
.	.	16b-/	16dd\	.	.	.	.	.	.	.	.	.	.	16b-\	16dd\
.	.	16cc/JJ	16ee-\JJ	.	.	.	.	.	.	.	.	.	.	16cc\JJ	16ee-\JJ
8r	.	16b-/LL	16dd\LL	.	.	.	.	.	.	.	.	.	.	16b-\LL	16dd\LL
.	.	16dd/	16ff\	.	.	.	.	.	.	.	.	.	.	16dd\	16ff\
8B-\	.	16cc/	16ee-\	.	.	.	.	.	.	.	.	.	.	16cc\	16ee-\
.	.	16b-/JJ	16dd\JJ	.	.	.	.	.	.	.	.	.	.	16b-\JJ	16dd\JJ
4F\	X 7	16cc\LL	16ee-\LL	.	.	.	.	.	.	.	.	.	.	16cc\LL	16ee-\LL
.	.	16b-\	16dd\	.	.	.	.	.	.	.	.	.	.	16b-\	16dd\
.	.	16cc\	16ee-\	.	.	.	.	.	.	.	.	.	.	16cc\	16ee-\
.	.	16dd\JJ	16ff\JJ	.	.	.	.	.	.	.	.	.	.	16dd\JJ	16ff\JJ
8r	.	16cc\LL	16ee-\LL	.	.	.	.	.	.	.	.	.	.	16cc\LL	16ee-\LL
.	.	16ee-\	16gg\	.	.	.	.	.	.	.	.	.	.	16ee-\	16gg\
8F\	X 7	16dd\	16ff\	.	.	.	.	.	.	.	.	.	.	16dd\	16ff\
.	.	16cc\JJ	16ee-\JJ	.	.	.	.	.	.	.	.	.	.	16cc\JJ	16ee-\JJ
=3	=3	=3	=3	=3	=3	=3	=3	=3	=3	=3	=3	=3	=3	=3	=3
4BB-/	.	16dd\LL	16ff\LL	.	.	.	.	.	.	.	.	.	.	4dd\	4ff\
.	.	16cc\	16ee-\	.	.	.	.	.	.	.	.	.	.	.	.
.	.	16dd\	16ff\	.	.	.	.	.	.	.	.	.	.	.	.
.	.	16ee-\JJ	16gg\JJ	.	.	.	.	.	.	.	.	.	.	.	.
8r	.	16dd\LL	16ff\LL	.	.	.	.	.	.	.	.	.	.	8r	8r
.	.	16ee-\	16gg\	.	.	.	.	.	.	.	.	.	.	.	.
8FF/	.	16dd\	16ff\	.	.	.	.	.	.	.	.	.	.	8cc\	8ff\
.	.	16cc\JJ	16ee-\JJ	.	.	.	.	.	.	.	.	.	.	.	.
4BB-/	.	16b-\LL	16dd\LL	.	.	.	.	.	.	.	.	.	.	16b-\LL	16dd\LL
.	.	16a\	16cc\	.	.	.	.	.	.	.	.	.	.	16f\	16cc\
.	.	16b-\	16dd\	.	.	.	.	.	.	.	.	.	.	16b-\	16dd\
.	.	16cc\JJ	16ee-\JJ	.	.	.	.	.	.	.	.	.	.	16cc\JJ	16ee-\JJ
8r	.	16b-\LL	16dd\LL	.	.	.	.	.	.	.	.	.	.	16b-\LL	16dd\LL
.	.	16dd\	16ff\	.	.	.	.	.	.	.	.	.	.	16dd\	16ff\
8BB-/	.	16cc\	16ee-\	.	.	.	.	.	.	.	.	.	.	16cc\	16ee-\
.	.	16b-\JJ	16dd\JJ	.	.	.	.	.	.	.	.	.	.	16b-\JJ	16dd\JJ
=4	=4	=4	=4	=4	=4	=4	=4	=4	=4	=4	=4	=4	=4	=4	=4
4F\	.	16a/LL	16cc\LL	.	.	.	.	.	.	.	.	.	.	4f/	4cc\
.	.	16f/	16a\	.	.	.	.	.	.	.	.	.	.	.	.
.	.	16f/	16a\	.	.	.	.	.	.	.	.	.	.	.	.
.	.	16a/JJ	16cc\JJ	.	.	.	.	.	.	.	.	.	.	.	.
!	!	!	!LO:LB:g=original	!	!	!	!	!	!	!	!	!	!	!	!
8r	.	16a/LL	16cc\LL	.	.	.	.	.	.	.	.	.	.	4r	4r
.	.	16f/	16a\	.	.	.	.	.	.	.	.	.	.	.	.
8F\	.	16f/	16a\	.	.	.	.	.	.	.	.	.	.	.	.
.	.	16a/JJ	16cc\JJ	.	.	.	.	.	.	.	.	.	.	.	.
4B-\	.	16b-/LL	16dd\LL	.	.	.	.	.	.	.	.	.	.	2r	2r
.	.	16d/	16b-\	.	.	.	.	.	.	.	.	.	.	.	.
.	.	16d/	16b-\	.	.	.	.	.	.	.	.	.	.	.	.
.	.	16b-/JJ	16dd\JJ	.	.	.	.	.	.	.	.	.	.	.	.
8r	.	16b-/LL	16dd\LL	.	.	.	.	.	.	.	.	.	.	.	.
.	.	16d/	16b-\	.	.	.	.	.	.	.	.	.	.	.	.
8BB-/	.	16d/	16b-\	.	.	.	.	.	.	.	.	.	.	.	.
.	.	16b-/JJ	16dd\JJ	.	.	.	.	.	.	.	.	.	.	.	.
!	!	!LO:LB:g=original	!	!	!	!	!	!	!	!	!	!	!	!	!LO:LB:g=original
=5	=5	=5	=5	=5	=5	=5	=5	=5	=5	=5	=5	=5	=5	=5	=5
4F\	.	16a/LL	16cc\LL	00r	.	00r	.	00r	.	00r	.	0r	.	8r	8r
.	.	16f/	16a\	.	.	.	.	.	.	.	.	.	.	.	.
.	.	16f/	16a\	.	.	.	.	.	.	.	.	.	.	8f/	8f/
.	.	16a/JJ	16cc\JJ	.	.	.	.	.	.	.	.	.	.	.	.
8r	.	16cc\LL	16ff\LL	.	.	.	.	.	.	.	.	.	.	4f/	4f/
.	.	16a\	16cc\	.	.	.	.	.	.	.	.	.	.	.	.
8FF/	.	16a\	16cc\	.	.	.	.	.	.	.	.	.	.	.	.
.	.	16cc\JJ	16ff\JJ	.	.	.	.	.	.	.	.	.	.	.	.
4BB-/	.	16b-/LL	16dd\LL	.	.	.	.	.	.	.	.	.	.	8r	8r
.	.	16d/	16b-\	.	.	.	.	.	.	.	.	.	.	.	.
.	.	16d/	16b-\	.	.	.	.	.	.	.	.	.	.	8f/	8f/
.	.	16b-/JJ	16dd\JJ	.	.	.	.	.	.	.	.	.	.	.	.
8r	.	16ff\LL	16bb-\LL	.	.	.	.	.	.	.	.	.	.	4f/	4f/
.	.	16dd\	16ff\	.	.	.	.	.	.	.	.	.	.	.	.
8BB-/	.	16dd\	16ff\	.	.	.	.	.	.	.	.	.	.	.	.
.	.	16ff\JJ	16bb-\JJ	.	.	.	.	.	.	.	.	.	.	.	.
!	!	!	!	!	!	!	!	!	!	!	!	!	!	!LO:LB:g=original	!
=6	=6	=6	=6	=6	=6	=6	=6	=6	=6	=6	=6	=6	=6	=6	=6
4E-\	.	16ee-\LL	16gg\LL	.	.	.	.	.	.	.	.	.	.	2r	2r
.	.	16b-\	16ee-\	.	.	.	.	.	.	.	.	.	.	.	.
.	.	16b-\	16ee-\	.	.	.	.	.	.	.	.	.	.	.	.
.	.	16ee-\JJ	16gg\JJ	.	.	.	.	.	.	.	.	.	.	.	.
8r	.	16cc\LL	16ee-\LL	.	.	.	.	.	.	.	.	.	.	.	.
.	.	16g\	16cc\	.	.	.	.	.	.	.	.	.	.	.	.
8C/	X 7	16g\	16cc\	.	.	.	.	.	.	.	.	.	.	.	.
.	.	16cc\JJ	16ee-\JJ	.	.	.	.	.	.	.	.	.	.	.	.
!LO:LB:g=original	!	!	!	!	!	!	!	!	!	!	!	!	!	!	!
4F\	.	16a/LL	16cc\LL	.	.	.	.	.	.	.	.	.	.	4r	4r
.	.	16f/	16a\	.	.	.	.	.	.	.	.	.	.	.	.
.	.	16f/	16a\	.	.	.	.	.	.	.	.	.	.	.	.
.	.	16a/JJ	16cc\JJ	.	.	.	.	.	.	.	.	.	.	.	.
8r	.	16f/LL	16a/LL	.	.	.	.	.	.	.	.	.	.	8r	8r
.	.	16c/	16f/	.	.	.	.	.	.	.	.	.	.	.	.
8F\	.	16c/	16cc/	.	.	.	.	.	.	.	.	.	.	8cc\	8ff\
.	.	16a 16f/JJ	16ff/JJ	.	.	.	.	.	.	.	.	.	.	.	.
=7	=7	=7	=7	=7	=7	=7	=7	=7	=7	=7	=7	=7	=7	=7	=7
!	!	!	!	!	!	!	!	!	!	!	!	!	!	!LO:TX:a:t=P:problem:mixed beam	!
4B-\	.	16b-/LL	16dd\LL	.	.	.	.	.	.	.	.	1r	.	8b-\L	8dd\L
.	.	16d/	16b-\	.	.	.	.	.	.	.	.	.	.	.	.
.	.	16d/	16b-\	.	.	.	.	.	.	.	.	.	.	8d/J	8b-\
.	.	16b-/JJ	16dd\JJ	.	.	.	.	.	.	.	.	.	.	.	.
8r	.	16dd\LL	16ff\LL	.	.	.	.	.	.	.	.	.	.	8b-\L	8dd\
.	.	16b-\	16dd\	.	.	.	.	.	.	.	.	.	.	.	.
8BB-/	.	16b-\	16dd\	.	.	.	.	.	.	.	.	.	.	8dd\J	8ff\J
.	.	16dd\JJ	16ff\JJ	.	.	.	.	.	.	.	.	.	.	.	.
4E-\	6 5	8ee-\L	16gg\LL	.	.	.	.	.	.	.	.	.	.	16ee-\LL	16gg\LL
.	.	.	16aa\	.	.	.	.	.	.	.	.	.	.	16dd\	16ff\
.	.	8cc\J	16bb-\	.	.	.	.	.	.	.	.	.	.	16cc\	16ee-\
.	.	.	16cc\JJ	.	.	.	.	.	.	.	.	.	.	16b-\JJ	16dd\JJ
8r	.	8b-/L	8dd\L	.	.	.	.	.	.	.	.	.	.	8f/L	8.cc\L
8F\	.	8f/J	16cc\L	.	.	.	.	.	.	.	.	.	.	16f/L	.
.	.	.	16b-\JJ	.	.	.	.	.	.	.	.	.	.	16f/JJ	16b-\Jk
!	!	!	!LO:LB:g=original	!	!	!	!	!	!	!	!	!	!	!	!
=8	=8	=8	=8	=8	=8	=8	=8	=8	=8	=8	=8	=8-	=8	=8	=8
!	!	!	!	!	!	!	!	!	!	!	!	!LO:TX:a:i:t=Solo	!	!	!
4BB-/	.	4d/	4b-/	.	.	.	.	.	.	.	.	4b-\	Vi-	4d/	4b-\
8r	.	4r	4r	.	.	.	.	.	.	.	.	8b-\	-ctor	4r	4r
8BB-/	.	.	.	.	.	.	.	.	.	.	.	8b-\	ſu-	.	.
4GG/	.	2r	2r	.	.	.	.	.	.	.	.	8b-\	-ba-	2r	2r
.	.	.	.	.	.	.	.	.	.	.	.	8cc\	-ctis	.	.
8r	.	.	.	.	.	.	.	.	.	.	.	8.dd\	in-	.	.
8FF/	.	.	.	.	.	.	.	.	.	.	.	.	.	.	.
.	.	.	.	.	.	.	.	.	.	.	.	16cc\	-fe-	.	.
=9	=9	=9-	=9-	=9	=9	=9	=9	=9	=9	=9	=9	=9	=9	=9	=9
!	!	!	!	!	!	!	!	!	!	!LO:TX:a:i:t=Solo	!	!	!	!	!
4BB-/	.	1r	1r	00r	.	00r	.	00r	.	4b-\	Vi-	8b-,\	-ris	1r	1r
*	*	*	*	*	*	*	*	*	*	*	*	*	*ij	*	*
.	.	.	.	.	.	.	.	.	.	.	.	8dd\	Vi-	.	.
8r	.	.	.	.	.	.	.	.	.	8b-\	-ctor	8dd\	-ctor	.	.
8BB-/	.	.	.	.	.	.	.	.	.	8b-\	ſu-	8dd\	ſu-	.	.
!	!	!	!	!	!	!	!	!	!	!	!	!	!	!	!LO:TX:a:t=1
4GG/	5 3	.	.	.	.	.	.	.	.	8b-\	-ba-	8dd\	-ba-	.	.
.	6 4	.	.	.	.	.	.	.	.	8cc\	-ctis	8ee-\	-ctis	.	.
8r	.	.	.	.	.	.	.	.	.	8.dd\	in-	8.ff\	in-	.	.
8FF/	.	.	.	.	.	.	.	.	.	.	.	.	.	.	.
.	.	.	.	.	.	.	.	.	.	16cc\	-fe-	16ee-\	-fe-	.	.
=10	=10	=10-	=10-	=10	=10	=10	=10	=10	=10	=10	=10	=10	=10	=10-	=10-
4BB-/	.	16ff\LL	16bb-\LL	.	.	.	.	.	.	4b-\	-ris	4dd\	-ris	8r	8r
*	*	*	*	*	*	*	*	*	*	*	*	*	*Xij	*	*
.	.	16dd\	16ff\	.	.	.	.	.	.	.	.	.	.	.	.
.	.	16dd\	16ff\	.	.	.	.	.	.	.	.	.	.	8B-/	8B-/
.	.	16ff\JJ	16bb-\JJ	.	.	.	.	.	.	.	.	.	.	.	.
8r	.	16dd\LL	16ff\LL	.	.	.	.	.	.	4r	.	4r	.	4B-/	4B-/
.	.	16b-\	16dd\	.	.	.	.	.	.	.	.	.	.	.	.
8BB-/	.	16b-\	16dd\	.	.	.	.	.	.	.	.	.	.	.	.
.	.	16dd\JJ	16ff\JJ	.	.	.	.	.	.	.	.	.	.	.	.
!	!	!LO:LB:g=original	!	!	!	!	!	!	!	!	!	!	!	!	!
4E-\	.	16ee-\LL	16gg\LL	.	.	.	.	.	.	2r	.	2r	.	8r	8r
.	.	16cc\	16ee-\	.	.	.	.	.	.	.	.	.	.	.	.
.	.	16cc\	16ee-\	.	.	.	.	.	.	.	.	.	.	8B-/	8B-/
.	.	16ee-\JJ	16gg\JJ	.	.	.	.	.	.	.	.	.	.	.	.
8r	.	16cc\LL	16ee-\LL	.	.	.	.	.	.	.	.	.	.	4B-/	4B-/
.	.	16a\	16cc\	.	.	.	.	.	.	.	.	.	.	.	.
8F\	X 7	16a\	16cc\	.	.	.	.	.	.	.	.	.	.	.	.
.	.	16cc\JJ	16ee-\JJ	.	.	.	.	.	.	.	.	.	.	.	.
=11	=11	=11	=11	=11	=11	=11	=11	=11	=11	=11-	=11	=11-	=11	=11	=11
4BB-/	.	16dd\LL	16ff\LL	.	.	.	.	.	.	0r	.	4b-\	Vi-	4r	4r
.	.	16b-\	16dd\	.	.	.	.	.	.	.	.	.	.	.	.
.	.	16b-\	16dd\	.	.	.	.	.	.	.	.	.	.	.	.
.	.	16dd\JJ	16ff\JJ	.	.	.	.	.	.	.	.	.	.	.	.
8r	.	16b-/LL	16dd\LL	.	.	.	.	.	.	.	.	8b-\	-ctor	8r	8r
.	.	16d/	16b-\	.	.	.	.	.	.	.	.	.	.	.	.
!	!	!	!	!	!	!	!	!	!	!	!	!LO:LB:g=original	!	!	!
8B-\	.	16d/	16b-\	.	.	.	.	.	.	.	.	8b-\	ſu-	8dd\	8ff\
.	.	16b-/JJ	16dd\JJ	.	.	.	.	.	.	.	.	.	.	.	.
4E-\	X 6	16cc\LL	16ee-\LL	.	.	.	.	.	.	.	.	8b-\	-ba-	8ee-\L	8gg\L
.	.	16a\	16cc\	.	.	.	.	.	.	.	.	.	.	.	.
.	.	16a\	16cc\	.	.	.	.	.	.	.	.	8cc\	-ctis	8cc\J	8cc\J
.	.	16cc\JJ	16ee-\JJ	.	.	.	.	.	.	.	.	.	.	.	.
8r	.	16f/LL	16a/LL	.	.	.	.	.	.	.	.	8.dd\	in-	8.f/L	8.cc\L
.	.	16a/	16cc/	.	.	.	.	.	.	.	.	.	.	.	.
8F\	.	16f/	16f/	.	.	.	.	.	.	.	.	.	.	.	.
.	.	16e-/JJ	16a/JJ	.	.	.	.	.	.	.	.	16cc\	-fe-	16f/Jk	16b-\Jk
=12	=12	=12	=12	=12	=12	=12	=12	=12	=12	=12	=12	=12	=12	=12	=12
4BB-/	.	4d/	8b-/L	.	.	.	.	.	.	.	.	8b-,\	-ris	4d/	4b-\
*	*	*	*	*	*	*	*	*	*	*	*	*	*ij	*	*
.	.	.	8B-/J	.	.	.	.	.	.	.	.	8dd\	Vi-	.	.
!LO:LB:g=original	!	!	!	!	!	!	!	!	!	!	!	!	!	!	!
8r	.	4r	4r	.	.	.	.	.	.	.	.	8dd\	-ctor	4r	4r
8BB-/	.	.	.	.	.	.	.	.	.	.	.	8dd\	ſu-	.	.
4GG/	.	2r	2r	.	.	.	.	.	.	.	.	8dd\	-ba-	2r	2r
.	.	.	.	.	.	.	.	.	.	.	.	8ee-\	-ctis	.	.
8r	.	.	.	.	.	.	.	.	.	.	.	8.ff\	in-	.	.
8F\	.	.	.	.	.	.	.	.	.	.	.	.	.	.	.
.	.	.	.	.	.	.	.	.	.	.	.	16ee-\	-fe-	.	.
=13	=13	=13-	=13-	=13	=13	=13	=13	=13	=13	=13-	=13	=13	=13	=13	=13
*	*	*	*	*	*	*	*	*	*	*	*ij	*	*	*	*
!	!	!	!	!	!	!	!	!	!	!	!	!	!	!	!LO:TX:a:t=11
4B-\	.	0r	0r	00r	.	00r	.	00r	.	4b-\	{Vi-	8dd,\	-ris	00r	00r
*	*	*	*	*	*	*	*	*	*	*	*	*	*Xij	*	*
.	.	.	.	.	.	.	.	.	.	.	.	8ff\	tro-	.	.
8r	.	.	.	.	.	.	.	.	.	8b-\	-ctor	(>8gg\L	-phae-	.	.
8B-\	.	.	.	.	.	.	.	.	.	8b-\	ſu-	16ff\L	.	.	.
.	.	.	.	.	.	.	.	.	.	.	.	16gg\JJ)	.	.	.
4G\	X 5	.	.	.	.	.	.	.	.	8b-\	-ba-	8ee-,\	-a	.	.
.	X 6	.	.	.	.	.	.	.	.	8cc\	-ctis	8ee-\	tro-	.	.
8r	.	.	.	.	.	.	.	.	.	8.dd\	in-	(>8ff\L	-phae-	.	.
8F\	X 7	.	.	.	.	.	.	.	.	.	.	16ee-\L	.	.	.
.	.	.	.	.	.	.	.	.	.	16cc\	-fe-	16ff\JJ)	.	.	.
=14	=14	=14	=14	=14	=14	=14	=14	=14	=14	=14	=14	=14	=14	=14	=14
4BB-/	.	.	.	.	.	.	.	.	.	8b-,\	-ris	8dd,\	-a	.	.
*	*	*	*	*	*	*	*	*	*	*	*Xij	*	*	*	*
.	.	.	.	.	.	.	.	.	.	8dd\	tro-	8dd\	tro-	.	.
!	!	!	!	!	!	!	!	!	!	!LO:LB:g=original	!	!	!	!	!
8r	.	.	.	.	.	.	.	.	.	8ee-\L	-phae-	8ee-\	-phae-	.	.
!	!	!	!	!	!	!	!	!	!	!	!	!LO:LB:g=original	!	!	!
8BB-/	.	.	.	.	.	.	.	.	.	16dd\L	.	(>16dd\LL	-a	.	.
.	.	.	.	.	.	.	.	.	.	16ee-\JJ	.	16ee-\JJ)	.	.	.
4C/	X 7	.	.	.	.	.	.	.	.	8cc\	-a	(>16cc\LL	Chri-	.	.
.	X 6	.	.	.	.	.	.	.	.	.	.	16dd\JJ)	.	.	.
.	.	.	.	.	.	.	.	.	.	8cc\	tro-	(>16b-\LL	-ſtus	.	.
.	.	.	.	.	.	.	.	.	.	.	.	16cc\JJ)	.	.	.
8r	.	.	.	.	.	.	.	.	.	(>8dd\L	-phae-	8.dd\	ex-	.	.
8FF/	.	.	.	.	.	.	.	.	.	16cc\L	.	.	.	.	.
.	.	.	.	.	.	.	.	.	.	16dd\JJ)	.	16cc\	-pli-	.	.
=15	=15	=15	=15	=15	=15	=15	=15	=15	=15	=15	=15	=15	=15	=15	=15
4BB-/	.	1r	1r	.	.	.	.	.	.	8b-,\	-a	4b-\	-cat	.	.
.	.	.	.	.	.	.	.	.	.	8b-\	tro-	.	.	.	.
8r	.	.	.	.	.	.	.	.	.	8cc\	-phae-	4r	.	.	.
8BB-/	.	.	.	.	.	.	.	.	.	(>16b-\LL	-a	.	.	.	.
.	.	.	.	.	.	.	.	.	.	16cc\JJ)	.	.	.	.	.
4F\	.	.	.	.	.	.	.	.	.	(>16a\LL	Chri-	2r	.	.	.
.	.	.	.	.	.	.	.	.	.	16b-\JJ)	.	.	.	.	.
.	.	.	.	.	.	.	.	.	.	(>16g\LL	-ſtus	.	.	.	.
.	.	.	.	.	.	.	.	.	.	16a\JJ)	.	.	.	.	.
8r	.	.	.	.	.	.	.	.	.	8b-\	ex-	.	.	.	.
8FF/	.	.	.	.	.	.	.	.	.	8f/	-pli-	.	.	.	.
=16	=16	=16-	=16-	=16	=16	=16	=16	=16	=16	=16	=16	=16-	=16	=16	=16
4BB-/	.	16f/LL	16b-/LL	.	.	.	.	.	.	4d/	-cat	00r	.	.	.
.	.	16d/	16f/	.	.	.	.	.	.	.	.	.	.	.	.
.	.	16d/	16f/	.	.	.	.	.	.	.	.	.	.	.	.
.	.	16f/JJ	16b-/JJ	.	.	.	.	.	.	.	.	.	.	.	.
8r	.	16f/LL	16b-/LL	.	.	.	.	.	.	4r	.	.	.	.	.
.	.	16d/	16f/	.	.	.	.	.	.	.	.	.	.	.	.
8B-\	.	16d/	16f/	.	.	.	.	.	.	.	.	.	.	.	.
.	.	16f/JJ	16b-/JJ	.	.	.	.	.	.	.	.	.	.	.	.
4F\	.	16a/LL	16cc\LL	.	.	.	.	.	.	2r	.	.	.	.	.
.	.	16f/	16a\	.	.	.	.	.	.	.	.	.	.	.	.
.	.	16f/	16a\	.	.	.	.	.	.	.	.	.	.	.	.
.	.	16a/JJ	16cc\JJ	.	.	.	.	.	.	.	.	.	.	.	.
8r	.	16a/LL	16cc\LL	.	.	.	.	.	.	.	.	.	.	.	.
.	.	16f/	16a\	.	.	.	.	.	.	.	.	.	.	.	.
8F\	.	16f/	16a\	.	.	.	.	.	.	.	.	.	.	.	.
.	.	16a/JJ	16cc\JJ	.	.	.	.	.	.	.	.	.	.	.	.
!	!	!	!LO:LB:g=original	!	!	!	!	!	!	!	!	!	!	!	!
=17	=17	=17	=17	=17	=17	=17	=17	=17	=17	=17-	=17	=17	=17	=17	=17
4BB-/	.	16b-/LL	16dd\LL	00r	.	00r	.	00r	.	00r	.	.	.	00r	00r
.	.	16d/	16b-\	.	.	.	.	.	.	.	.	.	.	.	.
.	.	16d/	16b-\	.	.	.	.	.	.	.	.	.	.	.	.
.	.	16b-/JJ	16dd\JJ	.	.	.	.	.	.	.	.	.	.	.	.
8r	.	16b-/LL	16dd\LL	.	.	.	.	.	.	.	.	.	.	.	.
.	.	16d/	16b-\	.	.	.	.	.	.	.	.	.	.	.	.
8G\	X -	16d/	16b-\	.	.	.	.	.	.	.	.	.	.	.	.
.	.	16b-/JJ	16dd\JJ	.	.	.	.	.	.	.	.	.	.	.	.
4C/	X n	16cc/LL	16een\LL	.	.	.	.	.	.	.	.	.	.	.	.
.	.	16g/	16cc\	.	.	.	.	.	.	.	.	.	.	.	.
.	.	16g/	16cc\	.	.	.	.	.	.	.	.	.	.	.	.
.	.	16cc/JJ	16ee\JJ	.	.	.	.	.	.	.	.	.	.	.	.
!	!	!LO:LB:g=original	!	!	!	!	!	!	!	!	!	!	!	!	!
8r	.	16cc/LL	16ee\LL	.	.	.	.	.	.	.	.	.	.	.	.
.	.	16g/	16cc\	.	.	.	.	.	.	.	.	.	.	.	.
8C/	.	16g/	16cc\	.	.	.	.	.	.	.	.	.	.	.	.
.	.	16cc/JJ	16een\JJ	.	.	.	.	.	.	.	.	.	.	.	.
=18	=18	=18	=18	=18	=18	=18	=18	=18	=18	=18	=18	=18	=18	=18	=18
4F\	.	16cc\LL	16ff\LL	.	.	.	.	.	.	.	.	.	.	.	.
.	.	16a\	16cc\	.	.	.	.	.	.	.	.	.	.	.	.
.	.	16a\	16cc\	.	.	.	.	.	.	.	.	.	.	.	.
.	.	16cc\JJ	16ff\JJ	.	.	.	.	.	.	.	.	.	.	.	.
!LO:LB:g=original	!	!	!	!	!	!	!	!	!	!	!	!	!	!	!
8r	.	16cc\LL	16ff\LL	.	.	.	.	.	.	.	.	.	.	.	.
.	.	16a\	16cc\	.	.	.	.	.	.	.	.	.	.	.	.
8FF/	.	16a\	16cc\	.	.	.	.	.	.	.	.	.	.	.	.
.	.	16cc\JJ	16ff\JJ	.	.	.	.	.	.	.	.	.	.	.	.
4C/	X n	16een\LL	16gg\LL	.	.	.	.	.	.	.	.	.	.	.	.
.	.	16cc\	16een\	.	.	.	.	.	.	.	.	.	.	.	.
.	.	16cc\	16ee\	.	.	.	.	.	.	.	.	.	.	.	.
.	.	16ee\JJ	16gg\JJ	.	.	.	.	.	.	.	.	.	.	.	.
8r	.	16ee\LL	16gg\LL	.	.	.	.	.	.	.	.	.	.	.	.
.	.	16cc\	16een\	.	.	.	.	.	.	.	.	.	.	.	.
8C/	.	16cc\	16ee\	.	.	.	.	.	.	.	.	.	.	.	.
.	.	16ee\JJ	16gg\JJ	.	.	.	.	.	.	.	.	.	.	.	.
=19	=19	=19	=19	=19	=19	=19	=19	=19	=19	=19	=19	=19	=19	=19	=19
4FF/	.	16ff\LL	16aa\LL	.	.	.	.	.	.	.	.	.	.	.	.
.	.	16a\	16ff\	.	.	.	.	.	.	.	.	.	.	.	.
.	.	16a\	16ff\	.	.	.	.	.	.	.	.	.	.	.	.
.	.	16ff\JJ	16aa\JJ	.	.	.	.	.	.	.	.	.	.	.	.
8r	.	16ff\LL	16aa\LL	.	.	.	.	.	.	.	.	.	.	.	.
.	.	16a\	16ff\	.	.	.	.	.	.	.	.	.	.	.	.
8F\	.	16a\	16ff\	.	.	.	.	.	.	.	.	.	.	.	.
.	.	16ff\JJ	16aa\JJ	.	.	.	.	.	.	.	.	.	.	.	.
4C/	X n	16een\LL	16gg\LL	.	.	.	.	.	.	.	.	.	.	.	.
.	.	16cc\	16een\	.	.	.	.	.	.	.	.	.	.	.	.
.	.	16cc\	16ee\	.	.	.	.	.	.	.	.	.	.	.	.
.	.	16ee\JJ	16gg\JJ	.	.	.	.	.	.	.	.	.	.	.	.
8r	.	16een\LL	16gg\LL	.	.	.	.	.	.	.	.	.	.	.	.
.	.	16cc\	16een\	.	.	.	.	.	.	.	.	.	.	.	.
8C/	.	16cc\	16ee\	.	.	.	.	.	.	.	.	.	.	.	.
.	.	16ee\JJ	16gg\JJ	.	.	.	.	.	.	.	.	.	.	.	.
=20	=20	=20	=20	=20	=20	=20	=20	=20	=20	=20	=20	=20	=20	=20	=20
4F\	.	16a/LL	16ff\LL	.	.	.	.	.	.	.	.	00r	.	.	.
.	.	16f/	16a\	.	.	.	.	.	.	.	.	.	.	.	.
.	.	16f/	16a\	.	.	.	.	.	.	.	.	.	.	.	.
.	.	16a/JJ	16ff\JJ	.	.	.	.	.	.	.	.	.	.	.	.
8r	.	16a/LL	16ff\LL	.	.	.	.	.	.	.	.	.	.	.	.
.	.	16f/	16a\	.	.	.	.	.	.	.	.	.	.	.	.
8F\	.	16f/	16a\	.	.	.	.	.	.	.	.	.	.	.	.
.	.	16a/JJ	16ff\JJ	.	.	.	.	.	.	.	.	.	.	.	.
4c\	X n	16g/LL	16een\LL	.	.	.	.	.	.	.	.	.	.	.	.
.	.	16en/	16g\	.	.	.	.	.	.	.	.	.	.	.	.
.	.	16e/	16g\	.	.	.	.	.	.	.	.	.	.	.	.
.	.	16g/JJ	16een\JJ	.	.	.	.	.	.	.	.	.	.	.	.
!	!	!	!LO:LB:g=original	!	!	!	!	!	!	!	!	!	!	!	!
8r	.	16g/LL	16een\LL	.	.	.	.	.	.	.	.	.	.	.	.
.	.	16en/	16g\	.	.	.	.	.	.	.	.	.	.	.	.
8C/	.	16e/	16g\	.	.	.	.	.	.	.	.	.	.	.	.
.	.	16g/JJ	16ee\JJ	.	.	.	.	.	.	.	.	.	.	.	.
=21	=21	=21	=21	=21-	=21	=21	=21	=21	=21	=21	=21	=21	=21	=21	=21
!	!	!	!LO:TX:a:t=P:problem:mixed bea	!	!	!	!	!	!	!	!	!	!	!	!
4F\	.	4a/	8ff\L	4F\	Vi-	00r	.	00r	.	00r	.	.	.	0r	0r
.	.	.	8f/J	.	.	.	.	.	.	.	.	.	.	.	.
8r	.	4r	4r	8F\	-ctor	.	.	.	.	.	.	.	.	.	.
8F\	.	.	.	8F\	ſu-	.	.	.	.	.	.	.	.	.	.
4D/	X -	2r	2r	8F\	-ba-	.	.	.	.	.	.	.	.	.	.
.	.	.	.	8G\	-ctis	.	.	.	.	.	.	.	.	.	.
8r	.	.	.	8.A\	in-	.	.	.	.	.	.	.	.	.	.
8C/	X n	.	.	.	.	.	.	.	.	.	.	.	.	.	.
.	.	.	.	16G\	-fe-	.	.	.	.	.	.	.	.	.	.
!	!	!LO:LB:g=original	!	!	!	!	!	!	!	!	!	!	!	!	!
=22	=22	=22	=22-	=22	=22	=22	=22	=22	=22	=22	=22	=22	=22	=22	=22
4F\	.	0r	0r	8F,\	-ris	.	.	.	.	.	.	.	.	.	.
.	.	.	.	8F\	tro-	.	.	.	.	.	.	.	.	.	.
8r	.	.	.	8B-\L	-phae-	.	.	.	.	.	.	.	.	.	.
8F\	.	.	.	16B-\L	.	.	.	.	.	.	.	.	.	.	.
.	.	.	.	16A\JJ	.	.	.	.	.	.	.	.	.	.	.
4D/	X 6	.	.	8B-,\	-a	.	.	.	.	.	.	.	.	.	.
.	.	.	.	8G\	tro-	.	.	.	.	.	.	.	.	.	.
8r	.	.	.	8c\L	-phae-	.	.	.	.	.	.	.	.	.	.
8C/	X n	.	.	16c\L	.	.	.	.	.	.	.	.	.	.	.
.	.	.	.	16B-\JJ	.	.	.	.	.	.	.	.	.	.	.
=23	=23	=23	=23	=23	=23	=23	=23	=23	=23	=23	=23	=23	=23	=23	=23
4F\	.	.	.	8c,\	-a	.	.	.	.	.	.	.	.	1r	1r
.	.	.	.	8A\	tro-	.	.	.	.	.	.	.	.	.	.
8r	.	.	.	8d\	-phae-	.	.	.	.	.	.	.	.	.	.
!	!	!	!	!LO:LB:g=original	!	!	!	!	!	!	!	!	!	!	!
8FF/	.	.	.	8A\	-a	.	.	.	.	.	.	.	.	.	.
4BB-/	.	.	.	8B-\	Chri-	.	.	.	.	.	.	.	.	.	.
.	.	.	.	8F\	-ſtus	.	.	.	.	.	.	.	.	.	.
8r	.	.	.	8B-\	Chri-	.	.	.	.	.	.	.	.	.	.
8C/	X n	.	.	8c\	-ſtus	.	.	.	.	.	.	.	.	.	.
!LO:LB:g=original	!	!	!	!	!	!	!	!	!	!	!	!	!	!LO:LB:g=original	!LO:LB:g=original
=24	=24	=24	=24	=24	=24	=24	=24	=24	=24	=24	=24	=24	=24	=24	=24-
!	!	!	!	!	!	!	!	!	!	!	!	!LO:TX:a:t=P:problem:brak taktu	!	!	!
4F\	.	1r	1r	8F\	ex-	.	.	.	.	.	.	1ryy	.	8r	8r
.	.	.	.	16F\	-pli-	.	.	.	.	.	.	.	.	16f/LL	16cc\LL
.	.	.	.	16F,\	-cat	.	.	.	.	.	.	.	.	16b-/JJ	16dd\JJ
8r	.	.	.	8F\	Chri-	.	.	.	.	.	.	.	.	16cc\LL	16ee-\LL
.	.	.	.	.	.	.	.	.	.	.	.	.	.	16f\	16cc\
8F\	X 7	.	.	8F\	-ſtus	.	.	.	.	.	.	.	.	16b-\	16dd\
.	.	.	.	.	.	.	.	.	.	.	.	.	.	16cc\JJ	16ee-\JJ
4BB-/	.	.	.	8B-\	ex-	.	.	.	.	.	.	.	.	16dd\LL	16ff\LL
.	.	.	.	.	.	.	.	.	.	.	.	.	.	16ee-\	16gg\
.	.	.	.	16B-\	-pli-	.	.	.	.	.	.	.	.	16dd\	16ff\
.	.	.	.	16B-\	-cat	.	.	.	.	.	.	.	.	16cc\JJ	16ee-\JJ
*	*	*	*	*	*ij	*	*	*	*	*	*	*	*	*	*
8r	.	.	.	8F\	Chri-	.	.	.	.	.	.	.	.	16b-\LL	16dd\LL
.	.	.	.	.	.	.	.	.	.	.	.	.	.	16cc\	16ee-\
8F\	.	.	.	8F\	-ſtus	.	.	.	.	.	.	.	.	16b-\	16dd\
.	.	.	.	.	.	.	.	.	.	.	.	.	.	16f\JJ	16cc\JJ
=25	=25	=25-	=25	=25	=25	=25	=25	=25	=25	=25	=25	=25	=25	=25	=25
!LO:TX:a:t=P:problem:brak taktu	!	!LO:TX:a:t=P:problem:zbędny pusty takt	!LO:TX:a:t=P:problem:zbędny pusty takt	!LO:TX:a:t=P:problem:brak taktu	!	!LO:TX:a:t=P:problem:brak taktu	!	!LO:TX:a:t=P:problem:brak taktu	!	!LO:TX:a:t=P:problem:brak taktu	!	!LO:TX:a:t=P:problem:brak taktu	!	!LO:TX:a:t=P:problem:brak taktu	!LO:TX:a:t=P:problem:brak taktu
1ryy	.	1r	1r	1ryy	.	1ryy	.	1ryy	.	1ryy	.	1ryy	.	1ryy	1ryy
=26	=26	=26-	=26	=26	=26	=26	=26	=26	=26	=26-	=26	=26-	=26	=26	=26
!LO:TX:a:t=P:problem:mixed beam	!	!	!LO:TX:b:t=Alleluia	!	!	!	!	!	!	!	!	!	!	!	!
!LO:TX:a:i:t=allegro	!	!LO:TX:a:i:t=Allegro	!LO:TX:a:t=Allegro	!	!	!	!	!	!	!LO:TX:a:i:t=allegro	!	!LO:TX:a:i:t=allegro	!	!LO:TX:a:i:t=Allegro	!
8BB-/L	.	16r	16r	8B-\	ex-	1r	.	1r	.	8r	.	8r	.	4d/	4b-\
.	.	16ff\LL	16ff\LL	.	.	.	.	.	.	.	.	.	.	.	.
8B-\	.	16ff\	16ff\	16B-\	-pli-	.	.	.	.	(>16b-\LL	Al-	(>16dd\LL	Al-	.	.
.	.	16ff\JJ	16ff\JJ	16B-\	-cat	.	.	.	.	16cc\JJ)	.	16ee-\JJ)	.	.	.
*	*	*	*	*	*Xij	*	*	*	*	*	*	*	*	*	*
!	!	!	!	!LO:TX:a:i:t=allegro	!	!	!	!	!	!	!	!	!	!	!LO:TX:a:i:t=Allegro
8B-\	.	16ff\LL	16ff\LL	4r	.	.	.	.	.	(>16dd\LL	-le-	(>16ff\LL	-le-	4r	4r
.	.	16ff\	16ff\	.	.	.	.	.	.	16b-\JJ)	.	16dd\JJ)	.	.	.
8B-\J	.	16ff\	16ff\	.	.	.	.	.	.	(>16ee-\LL	-lu-	(>16gg\LL	-lu-	.	.
.	.	16ff\JJ	16ff\JJ	.	.	.	.	.	.	16dd\JJ)	.	16ff\JJ)	.	.	.
8c\L	.	16ee-\LL	16ee-\LL	2r	.	.	.	.	.	8cc,\	-ia	8ee-,\	-ia	2r	2r
.	.	16gg\	16gg\	.	.	.	.	.	.	.	.	.	.	.	.
8B-\	.	16gg\	16gg\	.	.	.	.	.	.	(>16a\LL	al-	(>16cc\LL	al-	.	.
.	.	16gg\JJ	16gg\JJ	.	.	.	.	.	.	16b-\JJ)	.	16dd\JJ)	.	.	.
!	!	!	!	!	!	!	!	!	!	!LO:LB:g=original	!	!	!	!	!
8A\	X 5	16aa\LL	16aa\LL	.	.	.	.	.	.	(>16cc\LL	-le-	(>16ee-\LL	-le-	.	.
.	.	16aa\	16aa\	.	.	.	.	.	.	16a\JJ)	.	16cc\JJ)	.	.	.
8F\J	X 7	16aa\	16aa\	.	.	.	.	.	.	(>16dd\LL	-lu-	(>16ff\LL	-lu-	.	.
.	.	16aa\JJ	16aa\JJ	.	.	.	.	.	.	16cc\JJ)	.	16ee-\JJ)	.	.	.
=27	=27	=27	=27	=27	=27	=27-	=27	=27-	=27	=27	=27	=27	=27	=27	=27
!LO:TX:a:t=P:problem:mixed beam	!	!	!	!	!	!	!	!	!	!	!	!	!	!	!
!LO:TX:a:i:t=Tut	!	!	!	!	!	!	!	!LO:TX:a:i:t=allegro	!	!	!	!	!	!LO:TX:b:i:t=Tutti	!
8BB-/L	.	8bb-\	8bb-\	8r	.	8r	.	8r	.	8b-\	-ia	4dd\	-ia	8r	8r
*	*	*	*	*	*	*	*	*	*	*	*ij	*	*	*	*
!	!	!	!	!	!	!LO:TX:a:i:t=allegro	!	!	!	!	!	!	!	!	!LO:TX:a:i:t=Tutti
8B-\	.	8r	8r	8B-\	al-	(>16B-\LL	Al-	8f\	Al-	16dd\LL	al-	.	.	8f/L	8f/L
.	.	.	.	.	.	16c\JJ)	.	.	.	16ee-\JJ	.	.	.	.	.
!	!	!	!	!LO:LB:g=original	!	!	!	!	!	!	!	!	!	!	!
8B-\	.	4r	4r	8B-\	-le-	(>16d\LL	-le-	8f\	-le-	(>16ff\LL	-le-	4r	.	8f/	8f/
.	.	.	.	.	.	16B-\JJ)	.	.	.	16dd\JJ)	.	.	.	.	.
8B-\J	.	.	.	8B-\	-lu-	(>16e-\LL	-lu-	8f\	-lu-	(>16gg\LL	-lu-	.	.	8f/J	8f/J
.	.	.	.	.	.	16d\JJ)	.	.	.	16ff\JJ)	.	.	.	.	.
8c\L	.	2r	2r	8c,\	-ia	8c\	-ia	8a\	-ia	8ee-,\	-ia	2r	.	8f/L	8f/L
*	*	*	*	*	*ij	*	*	*	*ij	*	*	*	*	*	*
!	!	!	!	!	!	!	!	!	!	!	!	!	!	!	!LO:N:vis=8
8B-\	.	.	.	8B-\	al-	(>16A\LL	al-	8f\	Al-	(>16cc\LL	al-	.	.	16f/L	16f/L
!	!	!	!	!	!	!	!	!	!	!	!	!	!	!	!LO:N:vis=8
.	.	.	.	.	.	16B-\JJ)	.	.	.	16dd\JJ)	.	.	.	16f/JJ	16f/JJ
8A\	X 5	.	.	8A\	-le-	(>16c\LL	-le-	8a\	-le-	(>16ee-\LL	-le-	.	.	16f/LL	16f/LL
.	.	.	.	.	.	16A\JJ)	.	.	.	16cc\JJ)	.	.	.	16f/	16f/
8F\J	X 7	.	.	8F\	-lu-	(>16d\LL	-lu-	8a\	-lu-	16ff\LL	-lu-	.	.	16f/	16f/
.	.	.	.	.	.	16c\JJ)	.	.	.	16ee-\JJ	.	.	.	16f/JJ	16f/JJ
=28	=28	=28	=28	=28	=28	=28	=28	=28	=28	=28	=28	=28	=28	=28	=28
!LO:TX:a:t=P:problem:mixed beam	!	!	!	!	!	!	!	!	!	!	!	!	!	!	!
8BB-/L	.	16r	16r	4B-\	-ia	4B-\	-ia	4f\	-ia	8dd,\	-ia	8r	.	4f/	4f/
.	.	16ff\LL	16ff\LL	.	.	.	.	.	.	.	.	.	.	.	.
!LO:TX:a:i:t=Solo	!	!	!	!	!	!	!	!	!	!	!	!	!	!	!
8B-\	.	16ff\	16ff\	.	.	.	.	.	.	8b-\	al-	8dd\	al-	.	.
.	.	16ff\JJ	16ff\JJ	.	.	.	.	.	.	.	.	.	.	.	.
8F\	.	16ff\LL	16ff\LL	4r	.	4r	.	4r	.	8a\	-le-	8cc\	-le-	4r	4r
.	.	16ff\	16ff\	.	.	.	.	.	.	.	.	.	.	.	.
8BB-/J	.	16ff\	16ff\	.	.	.	.	.	.	8b-\	-lu-	8dd\	-lu-	.	.
.	.	16ff\JJ	16ff\JJ	.	.	.	.	.	.	.	.	.	.	.	.
!LO:TX:a:t=P:problem:mixed beam	!	!	!	!	!	!	!	!	!	!	!	!	!	!	!
8F\L	.	16ff\LL	16ff\LL	2r	.	2r	.	2r	.	8a,\	-ia	8cc\	-ia	2r	2r
*	*	*	*	*	*	*	*	*	*	*	*Xij	*	*	*	*
.	.	16ff\	16ff\	.	.	.	.	.	.	.	.	.	.	.	.
8A\	X 6	16ff\	16ff\	.	.	.	.	.	.	(>16g\LL	al-	(>16b-\LL	al-	.	.
.	.	16ff\JJ	16ff\JJ	.	.	.	.	.	.	16f\JJ)	.	16a\JJ)	.	.	.
8G\	X 7	16gg\LL	16gg\LL	.	.	.	.	.	.	(>16g\LL	-le-	(>16b-\LL	-le-	.	.
.	.	16gg\	16gg\	.	.	.	.	.	.	16b-\JJ)	.	16dd\JJ)	.	.	.
8C/J	X 7	16gg\	16gg\	.	.	.	.	.	.	(>16a\LL	-lu-	(>16cc\LL	-lu-	.	.
.	.	16gg\JJ	16gg\JJ	.	.	.	.	.	.	16g\JJ)	.	16b-\JJ)	.	.	.
!	!	!	!	!	!	!	!	!	!	!	!	!LO:LB:g=original	!	!	!
=29	=29	=29	=29	=29	=29	=29	=29	=29	=29	=29	=29	=29	=29	=29	=29
!LO:TX:a:t=P:problem:mixed beam	!	!	!	!	!	!	!	!	!	!	!	!	!	!	!
8F\L	.	8aa\	8aa\	8r	.	8r	.	8r	.	4f/	-ia	8a,\	-ja	8r	8r
*	*	*	*	*	*	*	*ij	*	*	*	*	*	*ij	*	*
!LO:TX:a:i:t=Tut	!	!	!	!	!	!	!	!	!	!	!	!	!	!	!
8B-\	.	8r	8r	8BB-/	al-	8d\	al-	8f\	Al-	.	.	8b-\	al-	8b-\L	16dd\LL
.	.	.	.	.	.	.	.	.	.	.	.	.	.	.	16ee-\JJ
8F\	.	4r	4r	8F\	-le-	8c\	-le-	8f\	-le-	4r	.	8a\	-le-	8cc\	8ff\L
8BB-/J	.	.	.	8B-\	-lu-	8d\	-lu-	8f\	-lu-	.	.	8b-\	-lu-	8dd\J	8ff\J
!LO:TX:a:t=P:problem:mixed beam	!	!	!	!	!	!	!	!	!	!	!	!	!	!	!
8F\L	.	2r	2r	8F\	-ia	8c,\	-ia	8f,\	-ia	2r	.	8a,\	-ia	8cc\L	8ff\L
*	*	*	*	*	*	*	*Xij	*	*Xij	*	*	*	*Xij	*	*
8A\	X 6	.	.	8A\	al-	(>16B-\LL	al-	8f\	al-	.	.	(<16g/LL	al-	8cc\	16gg\L
.	.	.	.	.	.	16A\JJ)	.	.	.	.	.	16f/JJ)	.	.	16ff\JJ
8G\	X 7	.	.	8G\	-le-	(>16B-\LL	-le-	8g\	-le-	.	.	8f/	-le-	8b-\	8ff\L
.	.	.	.	.	.	16d\JJ)	.	.	.	.	.	.	.	.	.
8C/J	X n	.	.	8c\	-lu-	(>16c\LL	-lu-	8g\	-lu-	.	.	8g/	-lu-	8cc\J	8eeX\J
.	.	.	.	.	.	16B-\JJ)	.	.	.	.	.	.	.	.	.
!	!	!	!	!	!	!	!	!	!	!	!	!	!	!LO:LB:g=original	!
!	!	!	!	!	!	!	!	!	!	!LO:LB:g=original	!	!	!	!	!
!LO:LB:g=original	!	!	!	!	!	!LO:LB:g=original	!	!LO:LB:g=original	!	!	!	!	!	!	!
=30	=30	=30	=30-	=30	=30	=30	=30	=30	=30	=30	=30	=30	=30	=30	=30
!LO:TX:a:t=P:problem:mixed beam	!	!	!	!	!	!	!	!	!	!	!	!	!	!	!
!LO:TX:a:i:t=Solo	!	!	!	!	!	!	!	!	!	!	!	!	!	!	!
8F\L	.	1r	0r	8F\	-ia	8A/	-ia	4f\	-ia	8r	.	8a,\	-ia	4cc\	4ff\
*	*	*	*	*	*Xij	*	*	*	*	*	*	*	*	*	*
!	!	!	!	!	!	!	!	!	!	!	!	!LO:TX:a:i:t=Solo	!	!	!
8FF/	.	.	.	8r	.	8r	.	.	.	8a\	al-	8cc\	al-	.	.
8AA/	X 6	.	.	4r	.	4r	.	4r	.	8a\	-le-	8cc\	-le-	4r	4r
8BB-/J	X 6	.	.	.	.	.	.	.	.	(<16g/LL	-lu-	(>16b-\LL	-lu-	.	.
.	X 5	.	.	.	.	.	.	.	.	16f/JJ)	.	16a\JJ)	.	.	.
8C/L	X n	.	.	2r	.	2r	.	2r	.	8en,/	-ia	8g,/	-ia	2r	2r
*	*	*	*	*	*	*	*	*	*	*	*ij	*	*	*	*
8FF/	.	.	.	.	.	.	.	.	.	8a\	al-	(>16a\LL	al-	.	.
.	.	.	.	.	.	.	.	.	.	.	.	16b-\JJ)	.	.	.
8AA/	X 6	.	.	.	.	.	.	.	.	8a\	-le-	8cc\	-le-	.	.
8BB-/J	X 6	.	.	.	.	.	.	.	.	(<16g/LL	-lu-	(>16b-\LL	-lu-	.	.
.	X 5	.	.	.	.	.	.	.	.	16f/JJ)	.	16a\JJ)	.	.	.
!	!	!	!	!	!	!	!	!	!	!	!	!	!	!	!LO:LB:g=original
=31	=31	=31-	=31	=31-	=31	=31-	=31	=31-	=31	=31	=31	=31	=31	=31	=31
!LO:TX:a:t=P:problem:mixed beam	!	!LO:TX:a:t=P:problem:brak taktu	!	!	!	!	!	!	!	!	!	!	!	!	!
8C/L	X n	1r	.	1r	.	1r	.	1r	.	8en,/	-ia	8g,/	-ia	0r	0r
8F\	.	.	.	.	.	.	.	.	.	8a\	al-	8f/	al-	.	.
8A\	X 6	.	.	.	.	.	.	.	.	8cc\	-le-	8ff\	-le-	.	.
8F\J	.	.	.	.	.	.	.	.	.	8a\	-lu-	8cc\	-lu-	.	.
!LO:TX:a:t=P:problem:mixed beam	!	!	!	!	!	!	!	!	!	!	!	!	!	!	!
8B-\L	6: 5:	.	.	.	.	.	.	.	.	8b-,\	-ia	(>16dd\LL	-ia	.	.
.	.	.	.	.	.	.	.	.	.	.	.	16een\JJ)	.	.	.
8G\	.	.	.	.	.	.	.	.	.	(>16dd\LL	al-	(>16ff\LL	al-	.	.
.	.	.	.	.	.	.	.	.	.	16een\JJ)	.	16gg\JJ)	.	.	.
!	!	!	!	!	!	!	!	!	!	!	!	!LO:LB:g=original	!	!	!
8c\	5 4	.	.	.	.	.	.	.	.	8ff\	-le-	8aa\	-le-	.	.
8C/J	X 3	.	.	.	.	.	.	.	.	8een\	-lu-	(>16gg\LL	-lu-	.	.
.	.	.	.	.	.	.	.	.	.	.	.	16ff\JJ)	.	.	.
!	!	!	!LO:LB:g=original	!	!	!	!	!	!	!LO:LB:g=original	!	!	!	!	!
=32	=32	=32	=32	=32-	=32	=32-	=32	=32-	=32	=32	=32	=32	=32	=32	=32
!LO:TX:a:i:t=Tutt	!	!	!	!	!	!	!	!	!	!	!	!	!	!	!
8F\L	.	16r	16r	8r	.	8r	.	8r	.	8ff,\	-ia	4ff\	-ia	.	.
.	.	16aa\LL	16aa\LL	.	.	.	.	.	.	.	.	.	.	.	.
!	!	!	!	!	!	!	!	!	!	!LO:TX:a:i:t=T.	!	!	!	!	!
8F\	.	16aa\	16aa\	(>16F\LL	al-	8c\	al-	8f\	al-	8cc\	al-	.	.	.	.
.	.	16aa\JJ	16aa\JJ	16G\JJ)	.	.	.	.	.	.	.	.	.	.	.
8A\	X 6	16aa\LL	16aa\LL	8A\	-le-	8c\	-le-	8f\	-le-	8cc\	-le-	4r	.	.	.
.	.	16gg\	16gg\	.	.	.	.	.	.	.	.	.	.	.	.
8B-\J	X 6	16gg\	16gg\	8B-\	-lu-	(>16B-\LL	-lu-	8d\	-lu-	8dd\	-lu-	.	.	.	.
.	X 5	16gg\JJ	16gg\JJ	.	.	16A\JJ)	.	.	.	.	.	.	.	.	.
!	!	!LO:LB:g=original	!	!	!	!	!	!	!	!	!	!	!	!	!
8c\L	.	16gg\LL	16gg\LL	8c\	-ia	8G/	-ia	8g,\	-ia	8cc,\	-ia	2r	.	.	.
*	*	*	*	*	*	*	*ij	*	*ij	*	*Xij	*	*	*	*
.	.	16aa\	16aa\	.	.	.	.	.	.	.	.	.	.	.	.
!	!	!	!	!LO:LB:g=original	!	!	!	!	!	!	!	!	!	!	!
8F\	.	16aa\	16aa\	(>16F\LL	al-	(>16A\LL	al-	8f\	al-	8cc\	al-	.	.	.	.
.	.	16aa\JJ	16aa\JJ	16G\JJ)	.	16B-\JJ)	.	.	.	.	.	.	.	.	.
!	!	!	!	!	!	!	!	!	!	!LO:LB:g=original	!	!	!	!	!
8A\	X 6	16aa\LL	16aa\LL	8A\	-le-	8c\	-le-	8f\	-le-	8cc\	-le-	.	.	.	.
.	.	16gg\	16gg\	.	.	.	.	.	.	.	.	.	.	.	.
8B-\J	X 6	16gg\	16gg\	8B-\	-lu-	(>16B-\LL	lu-	8d\	-lu-	8dd\	-lu-	.	.	.	.
.	X 5	16gg\JJ	16gg\JJ	.	.	16A\JJ)	.	.	.	.	.	.	.	.	.
=33	=33	=33	=33	=33	=33	=33	=33	=33	=33	=33	=33	=33-	=33	=33	=33
8c\L	X n	16gg\LL	16gg\LL	8c\	-ia	8G,/	-ia	8g,\	-ia	8cc,\	-ia	1r	.	1r	1r
.	.	16aa\	16aa\	.	.	.	.	.	.	.	.	.	.	.	.
*	*	*	*	*	*ij	*	*	*	*	*	*ij	*	*	*	*
8F\	.	16aa\	16aa\	8F\	al-	8f\	al-	8f\	al-	8cc\	al-	.	.	.	.
.	.	16aa\JJ	16aa\JJ	.	.	.	.	.	.	.	.	.	.	.	.
8A\	X 6	16aa\LL	16aa\LL	8A\	-le-	8f\	-le-	8f\	-le-	8cc\	-le-	.	.	.	.
.	.	16aa\	16aa\	.	.	.	.	.	.	.	.	.	.	.	.
8F\J	.	16aa\	16aa\	8F\	-lu-	8c\	-lu-	8f\	-lu-	8cc\	-lu-	.	.	.	.
.	.	16aa\JJ	16aa\JJ	.	.	.	.	.	.	.	.	.	.	.	.
!LO:TX:a:t=P:problem:mixed beam	!	!	!	!	!	!	!	!	!	!	!	!	!	!	!
8B-\L	6: 5:	16gg\LL	16gg\LL	8B-,\	-ia	8d,\	-ia	8g,\	-ia	8b-,\	-ia	.	.	.	.
.	.	16gg\	16gg\	.	.	.	.	.	.	.	.	.	.	.	.
8G\	.	16gg\	16gg\	8G\	al-	16d\LL	al-	8g\	al-	8dd\	al-	.	.	.	.
.	.	16gg\JJ	16gg\JJ	.	.	16en\JJ	.	.	.	.	.	.	.	.	.
8c\	5 4	16gg\LL	16gg\LL	8c\	-le-	8f\	-le-	8a\	-le-	8.cc\	-le-	.	.	.	.
.	.	16gg\	16gg\	.	.	.	.	.	.	.	.	.	.	.	.
8C/J	X 3	16gg\	16gg\	8C/	-lu-	8en\	-lu-	8g\	-lu-	.	.	.	.	.	.
.	.	16gg\JJ	16gg\JJ	.	.	.	.	.	.	16cc\	-lu-	.	.	.	.
=34	=34	=34	=34	=34	=34	=34	=34	=34	=34	=34	=34	=34-	=34	=34-	=34-
8F\	.	8aa\	8aa\	8F\	-ia	8f\	-ia	8a\	-ia	8cc,\	-ia	8r	.	4r	4r
*	*	*	*	*	*Xij	*	*Xij	*	*Xij	*	*Xij	*	*	*	*
8r	.	8r	8r	8r	.	8r	.	8r	.	8g/	al-	8een\	al-	.	.
8r	.	8r	8r	8r	.	8r	.	8r	.	8a\	-le-	8ff\	-le-	8r	8r
8C/	X n	8cc\L	8gg\L	8c\	al-	8en\	al-	8g\	al-	8r	.	8r	.	8cc\	8gg\
!	!	!	!	!	!	!	!	!LO:LB:g=original	!	!	!	!	!	!	!
4FF/	.	8cc\J	8aa\J	8F\	-le-	8f\	-le-	8a\	-le-	8r	.	8r	.	4cc\	4ff\
!	!	!	!	!	!	!LO:LB:g=original	!	!	!	!	!	!	!	!	!
.	.	8r	8r	8r	.	8r	.	8r	.	8g/	-lu-	8een\	-lu-	.	.
8r	.	8r	8r	8r	.	8r	.	8r	.	8a\	-ia	8ff\	-ia	8r	8r
8C/	X n	8cc\	8gg\	8c\	-lu-	8en\	-lu-	8g\	-lu-	8r	.	8r	.	8cc\	8gg\
!LO:LB:g=original	!	!	!	!	!	!	!	!	!	!	!	!	!	!	!
=35	=35	=35	=35	=35	=35	=35	=35	=35	=35	=35	=35	=35	=35	=35	=35
4FF/	.	8cc\	8aa\	8F\	-ia	8f\	-ia	8a\	-ia	8r	.	8r	.	8cc\	8ff\
.	.	8r	8r	8r	.	8r	.	8r	.	8cc\	al-	8ff\	al-	8r	8r
8r	.	4r	4r	4r	.	4r	.	4r	.	8dd\	-le-	8ff\	-le-	4r	4r
!LO:TX:a:i:t=Solo	!	!	!	!	!	!	!	!	!	!	!	!	!	!	!
8BB-/	.	.	.	.	.	.	.	.	.	(>16cc\LL	-lu-	(>16ee-X\LL	-lu-	.	.
.	.	.	.	.	.	.	.	.	.	16b-\JJ)	.	16dd\JJ)	.	.	.
!LO:TX:a:t=P:problem:mixed beam	!	!	!	!	!	!	!	!	!	!	!	!	!	!	!
8E-\L	.	2r	2r	2r	.	2r	.	2r	.	8g/	-ia	(>16cc\LL	-ia	2r	2r
.	.	.	.	.	.	.	.	.	.	.	.	16dd\JJ)	.	.	.
8C\	.	.	.	.	.	.	.	.	.	(>16g\LL	al-	(>16b-\LL	al-	.	.
.	.	.	.	.	.	.	.	.	.	16a\JJ)	.	16cc\JJ)	.	.	.
8F\	6 4	.	.	.	.	.	.	.	.	8b-\	-le-	8dd\	-le-	.	.
8FF/J	5 3	.	.	.	.	.	.	.	.	8a\	-lu-	(>16cc\LL	-lu-	.	.
.	.	.	.	.	.	.	.	.	.	.	.	16b-\JJ)	.	.	.
!	!	!	!	!	!	!	!	!	!	!LO:LB:g=original	!	!	!	!	!
=36	=36	=36	=36	=36	=36	=36	=36	=36	=36	=36	=36	=36	=36	=36	=36
!LO:TX:a:t=P:problem:mixed beam	!	!	!	!	!	!	!	!	!	!	!	!	!	!	!
!LO:TX:a:i:t=Tutti	!	!	!	!	!	!	!	!	!	!	!	!	!	!	!
8BB-/L	.	16r	16r	8r	.	8r	.	8r	.	4b-\	-ia	8b-,\	-ia	8r	8r
.	.	16ff\LL	16ff\LL	.	.	.	.	.	.	.	.	.	.	.	.
8B-\	.	16ff\	16ff\	8B-\	al-	8d\	al-	8f\	al-	.	.	8ff\	al-	8b-\	8dd\
.	.	16ff\JJ	16ff\JJ	.	.	.	.	.	.	.	.	.	.	.	.
8B-\	.	16ff\LL	16ff\LL	8B-\	-le-	8d\	-le-	8f\	-le-	4r	.	8ff\	-le-	8b-\L	8dd\L
.	.	16ff\	16ff\	.	.	.	.	.	.	.	.	.	.	.	.
8B-\J	.	16ff\	16ff\	8BB-/	-lu-	16c\LL	-lu-	8f\	-lu-	.	.	16ee-\LL	-lu-	16cc\L	16ee-\L
.	.	16ff\JJ	16ff\JJ	.	.	16B-\JJ	.	.	.	.	.	16dd\JJ	.	16dd\JJ	16ff\JJ
!LO:TX:a:t=P:problem:mixed beam	!	!	!	!	!	!	!	!	!	!	!	!	!	!LO:TX:a:t=P:problem:mixed beam	!
!	!	!	!	!LO:LB:g=original	!	!	!	!	!	!	!	!	!	!	!
8E-\L	6: 5:	16gg\LL	16gg\LL	8E-\	-ia	8B-,\	-ia	8g\	-ia	2r	.	16cc\LL	-ia	8ee-\L	8gg\L
.	.	16gg\	16gg\	.	.	.	.	.	.	.	.	16dd\JJ	.	.	.
*	*	*	*	*	*ij	*	*ij	*	*ij	*	*	*	*	*	*
!	!	!	!	!	!	!	!	!	!	!	!	!LO:LB:g=original	!	!	!
8C\	.	16gg\	16gg\	8C/	al-	8B-\	al-	8g\	al-	.	.	(>16b-\LL	al-	8f/J	8cc\J
.	.	16gg\JJ	16gg\JJ	.	.	.	.	.	.	.	.	16cc\JJ)	.	.	.
!	!	!	!LO:LB:g=original	!	!	!	!	!	!	!	!	!	!	!	!
8F\	6 4	16aa\LL	16aa\LL	8F\	le-	8B-\	-le-	8.f\	-le-	.	.	8dd\	-le-	8.f/L	8.cc\L
.	.	16aa\	16aa\	.	.	.	.	.	.	.	.	.	.	.	.
8FF/J	5 3	16aa\	16aa\	8FF/	-lu-	8A/	-lu-	.	.	.	.	(>16cc\LL	-lu-	.	.
.	.	16aa\JJ	16aa\JJ	.	.	.	.	16f\	-lu-	.	.	16b-\JJ)	.	16f/Jk	16cc\Jk
!	!	!LO:LB:g=original	!	!	!	!	!	!	!	!	!	!	!	!	!
=37	=37	=37	=37	=37	=37	=37	=37	=37	=37	=37	=37	=37	=37	=37	=37
4BB-/	.	8bb-\	4bb-\	4BB-/	-ia	4B-\	-ia	4f\	-ia	8r	.	8b-,\	-ia	4d/	4b-\
*	*	*	*	*	*	*	*	*	*Xij	*	*	*	*	*	*
!	!	!	!	!	!	!	!	!	!	!	!	!LO:TX:a:i:t=Solo	!	!	!
.	.	8r	.	.	.	.	.	.	.	16b-\LL	al-	(>16dd\LL	al-	.	.
.	.	.	.	.	.	.	.	.	.	16a\JJ	.	16cc\JJ)	.	.	.
8r	.	4r	4r	4r	.	4r	.	4r	.	8b-\L	.	8dd\L	.	4r	4r
8BB-/	.	.	.	.	.	.	.	.	.	16cc\L	.	16ee-\L	.	.	.
.	.	.	.	.	.	.	.	.	.	16b-\JJ	.	16dd\JJ	.	.	.
!LO:TX:a:i:t=Solo	!	!	!	!	!	!	!	!	!	!	!	!	!	!	!
4F\	.	2r	2r	2r	.	2r	.	2r	.	8a\L	.	8cc\L	.	2r	2r
.	.	.	.	.	.	.	.	.	.	16a\L	.	16cc\L	.	.	.
.	.	.	.	.	.	.	.	.	.	16g\JJ	.	16b-\JJ	.	.	.
8r	.	.	.	.	.	.	.	.	.	8a\L	.	8cc\L	.	.	.
8F\	.	.	.	.	.	.	.	.	.	16b-\L	.	16dd\L	.	.	.
.	.	.	.	.	.	.	.	.	.	16a\JJ	.	16cc\JJ	.	.	.
=38	=38	=38	=38-	=38-	=38	=38-	=38	=38-	=38	=38	=38	=38	=38	=38	=38
4G\	X -	1r	1r	1r	.	1r	.	1r	.	8g/L	.	8b-\L	.	00r	00r
.	.	.	.	.	.	.	.	.	.	16g/L	.	16b-\L	.	.	.
.	.	.	.	.	.	.	.	.	.	16f/JJ	.	16a\JJ	.	.	.
8r	.	.	.	.	.	.	.	.	.	8g\L	.	8b-\L	.	.	.
8C/	7 n	.	.	.	.	.	.	.	.	16a\L	.	16cc\L	.	.	.
.	.	.	.	.	.	.	.	.	.	16g\JJ	.	16b-\JJ	.	.	.
4F\	.	.	.	.	.	.	.	.	.	8f/L	.	8a\L	.	.	.
.	.	.	.	.	.	.	.	.	.	16f/L	.	16a\L	.	.	.
.	.	.	.	.	.	.	.	.	.	16g/JJ	.	16b-\JJ	.	.	.
8r	.	.	.	.	.	.	.	.	.	8a\	-le-	8cc\	-le-	.	.
8BB-/	X 6	.	.	.	.	.	.	.	.	16g/LL	-lu-	(>16b-\LL	-lu-	.	.
.	X 5	.	.	.	.	.	.	.	.	16f/JJ	.	16a\JJ)	.	.	.
=39	=39	=39-	=39-	=39-	=39	=39-	=39	=39-	=39	=39	=39	=39	=39	=39	=39
!LO:TX:a:t=P:problem:mixed beam	!	!	!	!	!	!	!	!	!	!	!	!	!	!	!
8C/L	X n	16r	16r	8r	.	8r	.	8r	.	8en,/	-ia	8g/	-ia	.	.
.	.	16ccc\LL	16ccc\LL	.	.	.	.	.	.	.	.	.	.	.	.
*	*	*	*	*	*	*	*	*	*	*	*	*	*	*	*
!LO:TX:a:i:t=T.	!	!	!	!	!	!	!	!	!	!	!	!	!	!	!
8c\	.	16ccc\	16ccc\	8C/	al-	8c\	al-	8g\	al-	8een\	al-	8r	.	.	.
.	.	16ccc\JJ	16ccc\JJ	.	.	.	.	.	.	.	.	.	.	.	.
8F\	.	16ccc\LL	16ccc\LL	8.F\	-le-	8c\	-le-	8a\L	.	8ff\	.	4r	.	.	.
.	.	16ccc\	16ccc\	.	.	.	.	.	.	.	.	.	.	.	.
8FF/J	.	16ccc\	16ccc\	.	.	8c\	-lu-	16b-\L	.	16gg\LL	.	.	.	.	.
.	.	16ccc\JJ	16ccc\JJ	16F\	-lu-	.	.	16a\JJ	.	16ff\JJ	.	.	.	.	.
!LO:TX:a:t=P:problem:mixed beam	!	!	!	!	!	!	!	!	!	!	!	!	!	!	!
8C/L	.	8ccc\	8ccc\	8c\	-ia	8c\	-ia	8g\	.	8een\	.	8r	.	.	.
*	*	*	*	*	*	*	*	*	*	*	*	*	*ij	*	*
!LO:TX:a:i:t=S.	!	!	!	!	!	!	!	!	!	!	!	!	!	!	!
8c\	.	8r	8r	8r	.	8r	.	8r	.	8g/	-al-	8een\	al-	.	.
8F\	.	4r	4r	4r	.	4r	.	4r	.	8a\	-le-	8ff\	-le-	.	.
8FF/J	.	.	.	.	.	.	.	.	.	(>16b-\LL	-lu-	16gg\LL	-lu-	.	.
.	.	.	.	.	.	.	.	.	.	16a\JJ)	.	16ff\JJ	.	.	.
!	!	!	!	!	!	!	!	!	!	!LO:LB:g=original	!	!	!	!	!
=40	=40	=40	=40	=40	=40	=40	=40	=40	=40	=40	=40	=40	=40	=40	=40
8C\L	X n	16r	16r	8r	.	8r	.	8r	.	4g/	-ia	4een\	-ia	.	.
*	*	*	*	*	*	*	*	*	*	*	*	*	*Xij	*	*
.	.	16ccc\LL	16ccc\LL	.	.	.	.	.	.	.	.	.	.	.	.
!LO:TX:a:i:t=T&colon;	!	!	!	!	!	!	!	!	!	!	!	!	!	!	!
8En\J	.	16ccc\	16ccc\	8En\	al-	8c\	al-	8g\	-al-	.	.	.	.	.	.
.	.	16ccc\JJ	16ccc\JJ	.	.	.	.	.	.	.	.	.	.	.	.
!LO:LB:g=original	!	!	!	!	!	!	!	!	!	!	!	!	!	!	!
!LO:TX:a:t=P:problem:mixed beam	!	!	!	!	!	!	!	!	!	!	!	!	!	!	!
8F\L	.	16ccc\LL	16ccc\LL	8F\	-le-	8c\	-le-	8a\	-le-	4r	.	4r	.	.	.
.	.	16ccc\	16ccc\	.	.	.	.	.	.	.	.	.	.	.	.
!	!	!	!	!	!	!	!	!LO:LB:g=original	!	!	!	!	!	!	!
8FF/J	.	16ccc\	16ccc\	(>16G\LL	-lu-	8c\	-lu-	(>16b-\LL	-lu-	.	.	.	.	.	.
.	.	16ccc\JJ	16ccc\JJ	16F\JJ)	.	.	.	16a\JJ)	-ia	.	.	.	.	.	.
!	!	!	!	!	!	!	!	!	!	!	!	!LO:LB:g=original	!	!	!
!	!	!	!	!	!	!LO:LB:g=original	!	!	!	!	!	!	!	!	!
8C\L	X n	16ccc\LL	16ccc\LL	8C,/	-ia	8c,\	-ia	8g,\	.	2r	.	2r	.	.	.
.	.	16ccc\	16ccc\	.	.	.	.	.	.	.	.	.	.	.	.
*	*	*	*	*	*	*	*Xij	*	*ij	*	*	*	*	*	*
8F\	.	16ccc\	16ccc\	8c\	al-	8c\	al-	8a\	al-	.	.	.	.	.	.
.	.	16ccc\JJ	16ccc\JJ	.	.	.	.	.	.	.	.	.	.	.	.
8A\	X 6	16ccc\LL	16ccc\LL	8A\	-le-	8f\	-le-	8a\	-le-	.	.	.	.	.	.
.	.	16ccc\	16ccc\	.	.	.	.	.	.	.	.	.	.	.	.
8F\J	.	16ccc\	16ccc\	8F\	-lu-	8c\	-lu-	8a\	-lu-	.	.	.	.	.	.
.	.	16ccc\JJ	16ccc\JJ	.	.	.	.	.	.	.	.	.	.	.	.
=41	=41	=41	=41	=41	=41	=41	=41	=41	=41	=41	=41	=41	=41	=41	=41
!LO:TX:a:t=P:problem:mixed beam	!	!	!	!	!	!	!	!	!	!	!	!	!	!	!
8B-\L	6: 5:	16bb-\LL	16bb-\LL	8B-,\	-ia	(>16d\LL	-ja	8g,\	-ia	2r	.	2r	.	.	.
*	*	*	*	*	*Xij	*	*ij	*	*Xij	*	*	*	*	*	*
.	.	16ddd\	16ddd\	.	.	16en,\JJ)	.	.	.	.	.	.	.	.	.
8G\	.	16ddd\	16ddd\	8G\	al-	8f\	al-	8g\	al-	.	.	.	.	.	.
.	.	16ddd\JJ	16ddd\JJ	.	.	.	.	.	.	.	.	.	.	.	.
8c\	X 4	16ccc\LL	16ccc\LL	8c\	-le-	8f\	-le-	8.g\	-le-	.	.	.	.	.	.
.	.	16ccc\	16ccc\	.	.	.	.	.	.	.	.	.	.	.	.
8C/J	X 3	16ccc\	16ccc\	8C/	-lu-	8en\	-lu-	.	.	.	.	.	.	.	.
.	.	16ccc\JJ	16ccc\JJ	.	.	.	.	16g\	-lu-	.	.	.	.	.	.
4F\	.	8ccc\	8ccc\	4F\	-ia	8f\	-ja	8a\	-ia	8r	.	8r	.	.	.
*	*	*	*	*	*	*	*Xij	*	*	*	*	*	*	*	*
.	.	8r	8r	.	.	8r	.	8r	.	16dd\LL	al-	16ff\LL	al-	.	.
.	.	.	.	.	.	.	.	.	.	16cc\JJ	.	16ee-\JJ	.	.	.
-8r	.	4r	4r	4r	.	4r	.	4r	.	8dd\L	.	8ff\L	.	.	.
!LO:TX:a:i:t=Solo	!	!	!	!	!	!	!	!	!	!	!	!	!	!	!
8BB-/	.	.	.	.	.	.	.	.	.	16ee-\L	.	16gg\L	.	.	.
.	.	.	.	.	.	.	.	.	.	16dd\JJ	.	16ff\JJ	.	.	.
!	!	!	!	!LO:LB:g=original	!	!	!	!	!	!	!	!	!	!	!
=42	=42	=42	=42-	=42	=42	=42-	=42	=42-	=42	=42	=42	=42	=42	=42	=42
4C/	X -	1r	1r	1r	.	1r	.	1r	.	8cc\L	.	8ee-\L	.	1r	1r
.	.	.	.	.	.	.	.	.	.	16cc\L	.	16ee-\L	.	.	.
.	.	.	.	.	.	.	.	.	.	16b-\JJ	.	16dd\JJ	.	.	.
8r	.	.	.	.	.	.	.	.	.	8cc\L	.	8ee-\L	.	.	.
8FF/	X 7	.	.	.	.	.	.	.	.	16dd\L	.	16ff\L	.	.	.
.	.	.	.	.	.	.	.	.	.	16cc\JJ	.	16ee-\JJ	.	.	.
4BB-/	.	.	.	.	.	.	.	.	.	8b-\L	.	8dd\L	.	.	.
.	.	.	.	.	.	.	.	.	.	16b-\L	.	16dd\L	.	.	.
.	.	.	.	.	.	.	.	.	.	16a\JJ	.	16cc\JJ	.	.	.
8r	.	.	.	.	.	.	.	.	.	8b-\	-le-	8dd\L	.	.	.
8BB-/	.	.	.	.	.	.	.	.	.	(>16cc\LL	-lu-	16ee-\L	.	.	.
.	.	.	.	.	.	.	.	.	.	16b-\JJ)	.	16dd\JJ	.	.	.
=43	=43	=43-	=43-	=4	=43	=43-	=43	=43-	=43	=43	=43	=43	=43	=43-	=43-
!LO:TX:a:t=P:problem:mixed beam	!	!	!	!	!	!	!	!	!	!	!	!	!	!	!
8FF/L	.	16r	16r	8r	.	8r	.	8r	.	8a\	-ia	8cc\L	.	8r	8r
.	.	16aa\LL	16aa\LL	.	.	.	.	.	.	.	.	.	.	.	.
*	*	*	*	*	*ij	*	*	*	*ij	*	*	*	*	*	*
!LO:TX:a:i:t=T&colon;	!	!	!	!	!	!	!	!	!	!	!	!	!	!	!
8F\	.	16aa\	16aa\	8F\	al-	8c\	-al	8f\	al-	8r	.	8a\J	.	8cc\	8ff\
.	.	16aa\JJ	16aa\JJ	.	.	.	.	.	.	.	.	.	.	.	.
8B-\	.	16ff\LL	16gg\LL	8B-\	-le-	8d\L	.	8f\	-le-	4r	.	8b-\	-le-	8.b-\L	16dd\LL
.	.	16bb-\	16bb-\	.	.	.	.	.	.	.	.	.	.	.	16cc\
8BB-/J	.	16bb-\	16bb-\	8BB-/	-lu-	16e-y\L	.	8f\	-lu-	.	.	(>16cc\LL	-lu-	.	16dd\
.	.	16bb-\JJ	16bb-\JJ	.	.	16d\JJ	.	.	.	.	.	16b-\JJ)	.	16cc\Jk	16ee-\JJ
!	!	!LO:LB:g=original	!	!	!	!	!	!	!	!	!	!	!	!	!
4F\	.	8aa\	4aa\	8F\	-ia	8c\	.	8f\	-ia	8r	.	8a\	-ia	8cc\	8ff\
*	*	*	*	*	*	*	*	*	*Xij	*	*ij	*	*	*	*
.	.	8r	.	8r	.	8r	.	8r	.	8a\	al-	8cc\	al-	8r	8r
8r	.	4r	4r	4r	.	4r	.	4r	.	8b-\	-le-	8dd\	-le-	4r	4r
8BB-/	.	.	.	.	.	.	.	.	.	(>16cc\LL	-lu-	(>16ee-\LL	-lu-	.	.
.	.	.	.	.	.	.	.	.	.	16b-\JJ)	.	16dd\JJ)	.	.	.
!	!	!	!LO:LB:g=original	!	!	!	!	!	!	!	!	!	!	!LO:LB:g=original	!LO:LB:g=original
=44	=44	=44	=44	=44	=44	=44	=44	=44	=44	=44	=44	=44	=44	=44	=44
!LO:TX:a:t=P:problem:mixed beam	!	!	!	!	!	!	!	!	!	!	!	!	!	!	!
8F\L	.	16r	16r	8r	.	8r	.	8r	.	8a\	-ia	8cc\	-ia	8r	8r
*	*	*	*	*	*	*	*	*	*	*	*Xij	*	*	*	*
.	.	16bb-\LL	16bb-\LL	.	.	.	.	.	.	.	.	.	.	.	.
8BB-/	.	16bb-\	16bb-\	8B-\	al-	16d\LL	al-	8f\	al-	8r	.	8r	.	8dd\	8ff\L
.	.	16bb-\JJ	16bb-\JJ	.	.	16e-\JJ	.	.	.	.	.	.	.	.	.
8D/	X 6	16bb-\LL	16bb-\LL	8B-\	-le-	8f\	-le-	8b-\	-le-	4r	.	4r	.	8dd\L	8ff\
.	.	16bb-\	16bb-\	.	.	.	.	.	.	.	.	.	.	.	.
8BB-/J	.	16bb-\	16bb-\	8B-\	-lu-	8d\	-lu-	8f\	-lu-	.	.	.	.	8dd\J	8ff\J
.	.	16bb-\JJ	16bb-\JJ	.	.	.	.	.	.	.	.	.	.	.	.
!LO:TX:a:t=P:problem:mixed beam	!	!	!	!	!	!	!	!	!	!	!	!	!	!	!
8E-\L	6: 5:	16bb-\LL	16bb-\LL	8E-,\	-ia	8g,\	-ia	(>16g\LL	-ia	2r	.	2r	.	8ee-\L	8gg\L
.	.	16bb-\	16bb-\	.	.	.	.	16a\JJ)	.	.	.	.	.	.	.
*	*	*	*	*	*	*	*ij	*	*	*	*	*	*	*	*
!	!	!	!	!	!	!	!	!LO:LB:g=original	!	!	!	!	!	!	!
8C\	.	16bb-\	16bb-\	8C/	al-	8c\	al-	8b-\	al-	.	.	.	.	8ee-\J	8gg\J
.	.	16bb-\JJ	16bb-\JJ	.	.	.	.	.	.	.	.	.	.	.	.
8F\	5 4	16aa\LL	16aa\LL	8F\	-le-	8d\	-le-	8b-\	-le-	.	.	.	.	8.cc\L	8.ff\L
.	.	16aa\	16aa\	.	.	.	.	.	.	.	.	.	.	.	.
8FF/J	X 3	16aa\	16aa\	8FF/	-lu-	(>16c\LL	-lu-	8a\	-lu-	.	.	.	.	.	.
.	.	16aa\JJ	16aa\JJ	.	.	16B-\JJ)	.	.	.	.	.	.	.	16cc\Jk	16ff\Jk
!	!	!	!	!	!	!LO:LB:g=original	!	!	!	!	!	!	!	!	!
=45	=45	=45	=45	=45	=45	=45	=45	=45	=45	=45-	=45	=45	=45	=45	=45
!LO:TX:a:t=P:problem:mixed beam	!	!	!	!	!	!	!	!	!	!	!	!	!	!LO:TX:a:t=P:problem:mixed beam	!LO:TX:a:t=P:problem:mixed beam
8BB-/L	.	16bb-\LL	16bb-\LL	8BB-,/	-ia	8B-,\	-ia	8b-\	-ia	0r	.	8r	.	8dd\L	8ff\L
.	.	16ff\	16ff\	.	.	.	.	.	.	.	.	.	.	.	.
*	*	*	*	*	*Xij	*	*Xij	*	*ij	*	*	*	*ij	*	*
!	!	!	!	!	!	!	!	!	!	!	!	!	!	!LO:TX:a:t=P:problem:w źródle takt niepełny (brak wartości 1 ćwierćnuty)	!
16B-\L	.	16ff\	16ff\	(>16B-\LL	al-	(>16d\LL	al-	8f\	al-	.	.	8dd\	al-	8rccyy	8f/
16A\JJ	.	16ff\JJ	16ff\JJ	16A\JJ)	.	16c\JJ)	.	.	.	.	.	.	.	.	.
8B-\L	.	16ff\LL	16ff\LL	8B-\	-le-	8d\	-le-	8f\	-le-	.	.	8dd\	-le-	8ryy	8f/
.	.	16ff\	16ff\	.	.	.	.	.	.	.	.	.	.	.	.
!	!	!	!	!	!	!	!	!	!	!	!	!	!	!LO:N:vis=16	!
16c\L	.	16ff\	16ff\	(>16c\LL	-lu-	(>16e-\LL	lu-	8f\	-lu-	.	.	8dd\	-lu-	8f/	8f/J
16B-\JJ	.	16ff\JJ	16ff\JJ	16B-\JJ)	.	16d\JJ)	.	.	.	.	.	.	.	.	.
!	!	!	!	!	!	!	!	!	!	!	!	!	!	!LO:N:vis=16	!
!LO:PB:g=original	!	!	!	!	!	!	!	!	!	!	!	!LO:LB:g=original	!	!	!
8A\L	X 6:	16ff\LL	16ff\LL	8A\	-ia	8c,\	-ia	8f,\	-ia	.	.	8ff\	-ia	8f/J	8f/L
.	.	16ff\	16ff\	.	.	.	.	.	.	.	.	.	.	.	.
!	!	!	!	!	!	!	!	!	!	!	!	!	!	!LO:N:vis=8	!
16F\L	.	16ff\	16ff\	(>16F\LL	al-	16A\LL	-al	8f\	al-	.	.	8cc\	al-	16f/LL	16f/L
!	!	!	!	!	!	!	!	!	!	!	!	!	!	!LO:N:vis=8	!
16G\JJ	.	16ff\JJ	16ff\JJ	16G\JJ)	.	16B-\JJ	.	.	.	.	.	.	.	16f/JJ	16f/JJ
8A\L	.	16ff\LL	16ff\LL	8A\LL	.	8c\L	.	8f\	-le-	.	.	8cc\	-le-	16f/LL	16f/LL
.	.	16ff\	16ff\	.	.	.	.	.	.	.	.	.	.	16f/	16f/
16B-\L	.	16ff\	16ff\	16B-\	.	16d\L	.	8f\	-lu-	.	.	8cc\	-lu-	16f/	16f/
16A\JJ	.	16ff\JJ	16ff\JJ	16A\JJ	.	16c\JJ	.	.	.	.	.	.	.	16f/JJ	16f/JJ
=46	=46	=46	=46	=46	=46	=46	=46	=46	=46	=46	=46	=46	=46	=46	=46
8G\L	X 7:	16ff\LL	16ff\LL	8G\L	.	8B-\L	.	8f,\	-ia	.	.	8dd,\	-ia	4f/	4f/
.	.	16ff\	16ff\	.	.	.	.	.	.	.	.	.	.	.	.
16G\L	.	16ff\	16ff\	16G\L	.	16B-\L	.	8a\	al-	.	.	8dd\	al-	.	.
16F\JJ	.	16ff\JJ	16ff\JJ	16F\JJ	.	16A\JJ	.	.	.	.	.	.	.	.	.
8G\L	X 6/	16een\LL	16een\LL	8G\L	.	8B-\L	.	8g\	-le-	.	.	8.een\	-le-	4r	4r
.	.	16ee\	16ee\	.	.	.	.	.	.	.	.	.	.	.	.
16A\L	.	16ee\	16ee\	16A\L	.	16c\L	.	8g\	-lu-	.	.	.	.	.	.
16G\JJ	.	16ee\JJ	16ee\JJ	16G\JJ	.	16B-\JJ	.	.	.	.	.	16ee\	-lu-	.	.
!	!	!	!	!LO:LB:g=original	!	!	!	!	!	!	!	!	!	!	!
8F\L	.	16ff\LL	16ff\LL	8F\L	.	8c,\	.	8a\	-ia	.	.	8ff,\	-ia	2r	2r
*	*	*	*	*	*	*	*	*	*	*	*	*	*Xij	*	*
.	.	16aa\	16aa\	.	.	.	.	.	.	.	.	.	.	.	.
16F\L	.	16aa\	16aa\	16F\L	.	8c\	al-	8a\	al-	.	.	(>16ff\LL	al-	.	.
16G\JJ	.	16aa\JJ	16aa\JJ	16G\JJ	.	.	.	.	.	.	.	16ee\JJ)	.	.	.
8A\L	X 6	16aa\LL	16aa\LL	8A\	le-	8c\	-le-	8a\	-le-	.	.	8ff\	-le-	.	.
.	.	16gg\	16gg\	.	.	.	.	.	.	.	.	.	.	.	.
8B-\J	6 5	16gg\	16gg\	8B-\	-lu-	8d\	-lu-	8g\	-lu-	.	.	16gg\LL	-lu-	.	.
.	.	16gg\JJ	16gg\JJ	.	.	.	.	.	.	.	.	16ff\JJ	.	.	.
!	!	!LO:LB:g=original	!	!	!	!	!	!	!	!	!	!	!	!	!
=47	=47	=47	=47	=47	=47	=47	=47	=47	=47	=47	=47	=47	=47	=47	=47
8c\L	X n:	16gg\LL	16gg\LL	8c,\	-ia	8c,\	-ia	8g,\	-ia	1r	.	8een,\	-ia	8r	8r
.	.	16gg\	16gg\	.	.	.	.	.	.	.	.	.	.	.	.
!	!	!	!	!	!	!	!	!LO:LB:g=original	!	!	!	!	!	!	!
16c\L	.	16gg\	16gg\	(>16c\LL	al-	8c\	al-	8g\	al-	.	.	8ee\	al-	8cc\L	8cc\
16B-\JJ	.	16gg\JJ	16gg\JJ	16B-\JJ)	.	.	.	.	.	.	.	.	.	.	.
8A\L	X 6	16aa\LL	16aa\LL	8A\	-le-	8c\	-le-	8a\	-le-	.	.	8ff\	-le-	8cc\	8ff\L
.	.	16aa\	16aa\	.	.	.	.	.	.	.	.	.	.	.	.
8F\J	.	16aa\	16aa\	8F\	-lu-	8c\	-lu-	8a\	-lu-	.	.	8ff\	-lu-	8cc\J	8ff\J
.	.	16aa\JJ	16aa\JJ	.	.	.	.	.	.	.	.	.	.	.	.
!LO:TX:a:t=P:problem:mixed beam	!	!	!	!	!	!	!	!	!	!	!	!	!	!	!
!	!	!	!LO:LB:g=original	!	!	!	!	!	!	!	!	!	!	!	!
8B-\L	6: 5:	16gg\LL	16gg\LL	8B-\	-ia	8d,\	-ia	8g,\	-ia	.	.	(>16dd\LL	-ia	8b-\L	16dd\LL
.	.	16gg\	16gg\	.	.	.	.	.	.	.	.	16een\JJ)	.	.	16ee-\J
*	*	*	*	*	*ij	*	*ij	*	*	*	*	*	*	*	*
8G\	.	16gg\	16gg\	8G\	al-	8d\	al-	8g\	al-	.	.	8ff\	al-	8b-\J	8ff\J
.	.	16gg\JJ	16gg\JJ	.	.	.	.	.	.	.	.	.	.	.	.
8c\	5 4	16gg\LL	16gg\LL	8c\	-le-	8.c\	-le-	8.g\	-le-	.	.	8ff\	-le-	8.cc\L	8ff\L
.	.	16gg\	16gg\	.	.	.	.	.	.	.	.	.	.	.	.
8C/J	X 3	16gg\	16gg\	8C/	-lu-	.	.	.	.	.	.	8een\	-lu-	.	8eeX\J
.	.	16gg\JJ	16gg\JJ	.	.	16c\	-lu-	16g\	-lu-	.	.	.	.	16cc\Jk	.
=48	=48	=48	=48	=48	=48	=48	=48	=48	=48	=48-	=48	=48	=48	=48	=48
!LO:TX:a:t=P:problem:mixed beam	!	!	!	!	!	!	!	!	!	!	!	!	!	!	!
8F\L	.	8aa\	8aa\	8F\	-ia	8c,\	-ia	8a\	-ia	8r	.	8ff\	-ia	8cc\	8ff\
!LO:TX:a:i:t=Solo	!	!	!	!	!	!	!	!	!	!	!	!	!	!	!
!	!	!	!	!	!	!	!	!	!	!	!	!LO:PB:g=original	!	!	!
!	!	!	!	!	!	!LO:LB:g=original	!	!	!	!	!	!	!	!	!
8BB-/J	.	8r	8r	8r	.	8r	.	8r	.	8dd\	al-	8ff\	al-	8r	8r
!	!	!	!	!	!	!	!	!	!	!LO:LB:g=original	!	!	!	!	!
8BB-/L	.	4r	4r	4r	.	4r	.	4r	.	8dd\	-le-	8ff\	-le-	4r	4r
16C/L	.	.	.	.	.	.	.	.	.	(>16cc\LL	-lu-	(>16ee-X\LL	-lu-	.	.
16D/JJ	.	.	.	.	.	.	.	.	.	16b-\JJ)	.	16dd\JJ)	.	.	.
!LO:TX:a:t=P:problem:mixed beam	!	!LO:TX:b:i:t=Verte Cito	!	!	!	!	!	!	!	!	!	!	!	!	!
8E-\L	.	2r	2r	2r	.	2r	.	2r	.	8b-\	-ia	(>16cc\LL	ia	2r	2r
.	.	.	.	.	.	.	.	.	.	.	.	16dd\JJ)	.	.	.
*	*	*	*	*	*Xij	*	*	*	*	*	*ij	*	*	*	*
8C\	.	.	.	.	.	.	.	.	.	8b-\	al-	(>16b-\LL	al-	.	.
.	.	.	.	.	.	.	.	.	.	.	.	16cc\JJ)	.	.	.
8F\	6 4	.	.	.	.	.	.	.	.	8b-\	-le-	8dd\	-le-	.	.
8FF/J	5 3	.	.	.	.	.	.	.	.	8a\	-lu-	(>16cc\LL	-lu-	.	.
.	.	.	.	.	.	.	.	.	.	.	.	16b-\JJ)	.	.	.
!	!	!LO:PB:g=original	!	!	!	!	!	!	!	!	!	!	!	!	!LO:LB:g=original
=49	=49	=49	=49	=49	=49	=49	=49	=49	=49	=49	=49	=49	=49	=49	=49
8BB-/L	.	16r	16r	8r	.	8r	.	8r	.	8b-,\	-ia	8b-,\	-ia	0r	0r
*	*	*	*	*	*	*	*	*	*	*	*Xij	*	*	*	*
.	.	16ff\LL	16ff\LL	.	.	.	.	.	.	.	.	.	.	.	.
*	*	*	*	*	*	*	*	*	*	*	*	*	*ij	*	*
!LO:TX:a:i:t=Tut	!	!	!	!	!	!	!	!	!	!	!	!	!	!	!
16BB-/L	.	16ff\	16ff\	16BB-/LL	al-	8d\	al-	8f\	al-	8b-\	al-	8dd\	al-	.	.
16C/JJ	.	16ff\JJ	16ff\JJ	16C/JJ	.	.	.	.	.	.	.	.	.	.	.
8D/L	X 6	16ff\LL	16ff\LL	8D/	-le-	8d\	-le-	8f\	-le-	8b-\	-le-	8dd\	-le-	.	.
.	.	16ff\	16ff\	.	.	.	.	.	.	.	.	.	.	.	.
8BB-/J	.	16ff\	16ff\	8BB-/	-lu-	8d\	-lu-	8f\	-lu-	8b-\	-lu-	8dd\	-lu-	.	.
.	.	16ff\JJ	16ff\JJ	.	.	.	.	.	.	.	.	.	.	.	.
!LO:LB:g=original	!	!	!	!	!	!	!	!	!	!	!	!	!	!	!
8E-\L	.	16ee-\LL	16ee-\LL	8E-\	-ia	8e-,\	-ia	8g,\	-ia	8g,/	-ia	8b-,\	-ia	.	.
*	*	*	*	*	*	*	*	*	*Xij	*	*	*	*Xij	*	*
.	.	16gg\	16gg\	.	.	.	.	.	.	.	.	.	.	.	.
16C\L	X -	16gg\	16gg\	16C/LL	al-	8e-\	al-	8g\	al-	8cc\	al-	8ee-\	al-	.	.
16D\JJ	.	16gg\JJ	16gg\JJ	16D/JJ	.	.	.	.	.	.	.	.	.	.	.
8E-\L	X 6	16gg\LL	16gg\LL	8E-\	.	8e-\	-le-	8g\	-le-	8cc\	-le-	8ee-\	-le-	.	.
.	.	16gg\	16gg\	.	.	.	.	.	.	.	.	.	.	.	.
8C\J	.	16gg\	16gg\	8C/	.	8e-\	-lu-	8g\	-lu-	8cc\	-lu-	8ee-\	-lu-	.	.
.	.	16gg\JJ	16gg\JJ	.	.	.	.	.	.	.	.	.	.	.	.
!	!	!	!	!LO:LB:g=original	!	!	!	!	!	!	!	!	!	!	!
=50	=50	=50	=50	=50	=50	=50	=50	=50	=50	=50	=50	=50	=50	=50	=50
8F\L	.	16ff\LL	16ff\LL	8F\L	.	8f,\	-ia	8a\	-ia	8a,\	-ia	8cc,\	-ia	.	.
.	.	16aa\	16aa\	.	.	.	.	.	.	.	.	.	.	.	.
*	*	*	*	*	*	*	*	*	*ij	*	*	*	*	*	*
16D\L	X -	16aa\	16aa\	16D\L	.	8f\	al-	8a\	al-	8dd\	al-	8ff\	al-	.	.
16E-\JJ	.	16aa\JJ	16aa\JJ	16E-\JJ	.	.	.	.	.	.	.	.	.	.	.
8F\L	.	16aa\LL	16aa\LL	8F\L	.	8f\	-le-	8a\	-le-	8dd\	-le-	8ff\	-le-	.	.
.	.	16aa\	16aa\	.	.	.	.	.	.	.	.	.	.	.	.
8D\J	.	16aa\	16aa\	8D\J	.	8F/	-lu-	8a\	-lu-	8dd\	-lu-	8ff\	-lu-	.	.
.	.	16aa\JJ	16aa\JJ	.	.	.	.	.	.	.	.	.	.	.	.
!LO:TX:a:t=P:problem:mixed beam	!	!	!	!	!	!	!	!	!	!	!	!	!	!	!
8G\L	X -	16gg\LL	16gg\LL	8G\L	.	8B-,\	-ia	8g,\	-ia	8b-,\	-ia	8dd,\	-ia	.	.
.	.	16bb-\	16bb-\	.	.	.	.	.	.	.	.	.	.	.	.
*	*	*	*	*	*	*	*	*	*	*	*Xij	*	*ij	*	*
!	!	!	!	!	!	!	!	!LO:LB:g=original	!	!	!	!	!	!	!
8E-\	6 5	16bb-\	16bb-\	8E-\J	.	8c\	al-	8g\	al-	(>16g\LL	al-	8cc\	al-	.	.
.	.	16bb-\JJ	16bb-\JJ	.	.	.	.	.	.	16a\JJ)	.	.	.	.	.
!	!	!	!	!	!	!	!	!	!	!	!	!LO:LB:g=original	!	!	!
8F/	X 4	16bb-\LL	16bb-\LL	8F\	-le-	8B-\	-le-	8.f\	-le-	8b-\	-le-	8dd\	-le-	.	.
.	.	16aa\	16aa\	.	.	.	.	.	.	.	.	.	.	.	.
8FF/J	X 3	16aa\	16aa\	8FF/	-lu-	8c\	-lu-	.	.	8a\	-lu-	(>16cc\LL	-lu-	.	.
.	.	16aa\JJ	16aa\JJ	.	.	.	.	16f\	-lu-	.	.	16b-\JJ)	.	.	.
!	!	!	!	!	!	!	!	!	!	!LO:PB:g=original	!	!	!	!	!
=51	=51	=51	=51	=51	=51	=51	=51	=51	=51	=51	=51	=51	=51	=51-	=51-
!LO:TX:a:t=P:problem:mixed beam	!	!	!	!	!	!	!	!	!	!	!	!	!	!	!
!	!	!	!LO:TX:b:i:t=Verte cito	!	!	!	!	!	!	!	!	!	!	!	!
8BB-/L	.	16bb-\LL	16bb-\LL	8BB-,/	-ia	8d,\	-ia	8f,\	-ia	8b-,\	-ia	8b-,\	-ia	8r	8r
*	*	*	*	*	*	*	*Xij	*	*	*	*	*	*	*	*
.	.	16ff\	16ff\	.	.	.	.	.	.	.	.	.	.	.	.
16B-\L	.	16ff\	16ff\	16B-\LL	al-	16d\LL	al-	8f\	al-	8dd\	al-	8dd\	al-	8b-\L	8dd\L
16A\JJ	.	16ff\JJ	16ff\JJ	16A\JJ	.	16c\JJ	.	.	.	.	.	.	.	.	.
8B-\L	.	16ff\LL	16ff\LL	8B-\L	.	8d\L	.	8f\	-le-	8dd\	-le-	8dd\	-le-	8b-\	8dd\
.	.	16ff\	16ff\	.	.	.	.	.	.	.	.	.	.	.	.
16c\L	.	16ff\	16ff\	16c\L	.	16e-\L	.	8f\	-lu-	8dd\	-lu-	8cc\	-lu-	8b-\J	8dd\J
16B-\JJ	.	16ff\JJ	16ff\JJ	16B-\JJ	.	16d\JJ	.	.	.	.	.	.	.	.	.
!	!	!	!LO:PB:g=original	!	!	!	!	!	!	!	!	!	!	!	!
8A\L	X 6	16ff\LL	16ff\LL	8A\L	.	8c\L	.	8f,\	-ia	8ff\	-ia	8ff,\	-ia	8cc\L	8ff\L
.	.	16ff\	16ff\	.	.	.	.	.	.	.	.	.	.	.	.
*	*	*	*	*	*	*	*	*	*	*	*ij	*	*	*	*
16F\L	.	16ff\	16ff\	16F\L	.	16A\L	.	8f\	al-	8cc\	al-	8cc\	al-	16f\L	16cc\L
16G\JJ	.	16ff\JJ	16ff\JJ	16G\JJ	.	16B-\JJ	.	.	.	.	.	.	.	16f\JJ	16cc\JJ
!	!	!	!	!	!	!	!	!	!	!	!	!	!	!LO:LB:g=original	!
8A\L	.	16ff\LL	16ff\LL	8A\L	.	8c\L	.	8f\	-le-	8cc\	-le-	8cc\	-le-	8f/L	8cc\L
.	.	16ff\	16ff\	.	.	.	.	.	.	.	.	.	.	.	.
16B-\L	.	16ff\	16ff\	16B-\L	.	16d\L	.	8f\	-lu-	8cc\	-lu-	8cc\	-lu-	8f/J	8cc\J
16A\JJ	.	16ff\JJ	16ff\JJ	16A\JJ	.	16c\JJ	.	.	.	.	.	.	.	.	.
=52	=52	=52	=52	=52	=52	=52	=52	=52	=52	=52	=52	=52	=52	=52	=52
8G\L	X 7:	16ff\LL	16ff\LL	8G\L	.	8B-\L	.	8f,\	-ia	8dd,\	-ia	8dd,\	-ia	8b-\L	8dd\L
*	*	*	*	*	*	*	*	*	*Xij	*	*	*	*	*	*
.	.	16ff\	16ff\	.	.	.	.	.	.	.	.	.	.	.	.
16G\L	.	16ff\	16ff\	16G\L	.	16B-\L	.	8a\	al-	8dd\	al-	8dd\	al-	16b-\L	8dd\J
16F\JJ	.	16ff\JJ	16ff\JJ	16F\JJ	.	16A\JJ	.	.	.	.	.	.	.	16f\JJ	.
!	!	!LO:LB:g=original	!	!	!	!LO:LB:g=original	!	!	!	!	!	!	!	!	!
8G\L	X 6/	16een\LL	16een\LL	8G\L	.	8B-\L	.	8g\	-le-	8.een\	-le-	8.een\	-le-	8b-\L	8.eeX\L
.	.	16ee\	16ee\	.	.	.	.	.	.	.	.	.	.	.	.
16A\L	.	16ee\	16ee\	16A\L	.	16c\L	.	8g\	-lu-	.	.	.	.	8b-\J	.
16G\JJ	.	16ee\JJ	16ee\JJ	16G\JJ	.	16B-\JJ	.	.	.	16ee\	-lu-	16ee\	-lu-	.	16ee\Jk
8F\L	.	16ff\LL	16ff\LL	8F\L	.	4c\	.	8a,\	-ia	8ff,\	-ia	8ff\	-ia	4cc\	4ff\
*	*	*	*	*	*	*	*	*	*	*	*Xij	*	*Xij	*	*
.	.	16aa\	16aa\	.	.	.	.	.	.	.	.	.	.	.	.
*	*	*	*	*	*	*	*	*	*ij	*	*	*	*	*	*
16F\L	.	16aa\	16aa\	16F\L	.	.	.	8a\	al-	(>16ff\LL	al-	(>16ff\LL	al-	.	.
16G\JJ	X 6/	16aa\JJ	16aa\JJ	16G\JJ	.	.	.	.	.	16een\JJ)	.	16een\JJ)	.	.	.
8A\L	X 6	16aa\LL	16aa\LL	8A\	-le-	8c\	-le-	8a\	-le-	8ff\	-le-	8ff\	-le-	4r	4r
.	.	16gg\	16gg\	.	.	.	.	.	.	.	.	.	.	.	.
8B-\J	X 6	16gg\	16gg\	8B-\	-lu-	8c\	-lu-	8g\	-lu-	(>16gg\LL	-lu-	(>16gg\LL	-lu-	.	.
.	X 5	16gg\JJ	16gg\JJ	.	.	.	.	.	.	16ff\JJ)	.	16ff\JJ)	.	.	.
!	!	!	!	!	!	!	!	!	!	!	!	!LO:LB:g=original	!	!	!
=53	=53	=53	=53	=53-	=53	=53	=53	=53	=53	=53	=53	=53	=53	=53	=53
8c\L	X n:	16gg\LL	16gg\LL	8c,\	-ja	8c,\	-ia	8g,\	-ia	8.een\	-ja	8een,\	-ia	4r	4r
.	.	16gg\	16gg\	.	.	.	.	.	.	.	.	.	.	.	.
*	*	*	*	*	*	*	*ij	*	*	*	*	*	*	*	*
16c\L	.	16gg\	16gg\	16c\LL	al-	8c\	al-	8g\	al-	.	.	8ee\	al-	.	.
16B-\JJ	.	16gg\JJ	16gg\JJ	16B-\JJ	.	.	.	.	.	16ee\	al-	.	.	.	.
8A\L	X 6	16aa\LL	16aa\LL	8A\	-le-	8c\	-le-	8a\	-le-	8ff\	-le-	8ff\	-le-	8r	8r
.	.	16aa\	16aa\	.	.	.	.	.	.	.	.	.	.	.	.
8F\J	.	16aa\	16aa\	8F\	-lu-	8c\	-lu-	8a\	-lu-	8ff\	-lu-	8ff\	-lu-	8f/	8ff\
.	.	16aa\JJ	16aa\JJ	.	.	.	.	.	.	.	.	.	.	.	.
*	*	*	*	*	*ij	*	*	*	*	*	*	*	*	*	*
!	!	!	!	!LO:PB:g=original	!	!	!	!LO:LB:g=original	!	!LO:LB:g=original	!	!	!	!	!
8B-\L	6: 5:	16gg\LL	16gg\LL	8B-\	-ja	8d,\	-ia	8g,\	-ia	16dd\LL	-ja	(>16dd\LL	-ia	8dd\L	8ff\L
.	.	16gg\	16gg\	.	.	.	.	.	.	16een,\JJ	.	16een\JJ)	.	.	.
*	*	*	*	*	*	*	*	*	*	*	*	*	*ij	*	*
8G\J	.	16gg\	16gg\	8G\	al-	8d\	al-	8g\	al-	8ff\	al-	8ff\	al-	8b-\J	8ff\
.	.	16gg\JJ	16gg\JJ	.	.	.	.	.	.	.	.	.	.	.	.
!LO:LB:g=original	!	!	!	!	!	!	!	!	!	!	!	!	!	!	!
!LO:TX:a:t=P:problem:mixed beam	!	!	!	!	!	!	!	!	!	!	!	!	!	!	!
8c\L	.	16gg\LL	16gg\LL	8c\	-le-	8.c\	-le-	8.g\	-le-	8cc\	-le-	8ff\	-le-	8.cc\L	8ff\
.	.	16gg\	16gg\	.	.	.	.	.	.	.	.	.	.	.	.
8C/J	.	16gg\	16gg\	8C,/	-lu-	.	.	.	.	8cc\	-lu-	8een\	-lu-	.	8eeX\J
.	.	16gg\JJ	16gg\JJ	.	.	16c\	-lu-	16g\	-lu-	.	.	.	.	16cc\Jk	.
=54	=54	=54	=54	=54	=54	=54	=54	=54	=54	=54	=54	=54	=54	=54	=54
!LO:TX:a:t=P:problem:mixed beam	!	!	!	!	!	!	!	!	!	!	!	!	!	!	!
8F\L	.	16aa\LL	16aa\LL	8F\	-ja	8c,\	-ia	8a,\	-ia	8cc\	-ia	8ff,\	-ia	8cc\L	8ff\L
.	.	16ff\	16ff\	.	.	.	.	.	.	.	.	.	.	.	.
*	*	*	*	*	*Xij	*	*Xij	*	*	*	*ij	*	*	*	*
16BB-/L	.	16ff\	16ff\	(<16BB-/LL	al-	8d\	al-	8f\	al-	8b-\	al-	8dd\	al-	16dd\L	16ff\L
16C/JJ	.	16ff\JJ	16ff\JJ	16C/JJ)	.	.	.	.	.	.	.	.	.	16cc\JJ	16ee-\JJ
8D/L	.	16ff\LL	16ff\LL	8D/	-le-	8d\	-le-	8f\	-le-	8b-\	-le-	8dd\	-le-	8b-\L	8dd\L
.	.	16ff\	16ff\	.	.	.	.	.	.	.	.	.	.	.	.
8BB-/J	.	16ff\	16ff\	8BB-/	-lu-	8d\	-lu-	8f\	-lu-	8b-\	-lu-	8dd\	-lu-	8dd\J	8ff\J
.	.	16ff\JJ	16ff\JJ	.	.	.	.	.	.	.	.	.	.	.	.
!LO:TX:a:t=P:problem:mixed beam	!	!	!	!	!	!	!	!	!	!	!	!	!	!	!
8E-\L	.	16ee-\LL	16ee-\LL	8E-\	-ia	8e-,\	-ia	8g,\	-ia	8g,/	-ia	8b-,\	-ia	8b-\L	8ee-\L
*	*	*	*	*	*	*	*ij	*	*	*	*	*	*Xij	*	*
.	.	16gg\	16gg\	.	.	.	.	.	.	.	.	.	.	.	.
16C/L	.	16gg\	16gg\	(<16C/LL	al-	8e-\	al-	8g\	al-	8cc\	al-	8ee-\	al-	16ee-\L	16gg\L
16D/JJ	.	16gg\JJ	16gg\JJ	16D/JJ)	.	.	.	.	.	.	.	.	.	16dd\JJ	16ff\JJ
8E-\L	.	16gg\LL	16gg\LL	8E-\	-le-	8e-\	-le-	8g\	-le-	8cc\	-le-	8ee-\	-le-	8cc\L	8ee-\L
.	.	16gg\	16gg\	.	.	.	.	.	.	.	.	.	.	.	.
8C\J	.	16gg\	16gg\	8C/	-lu-	8e-\	-lu-	8g\	-lu-	8cc\	-lu-	8ee-\	-lu-	8ee-\J	8gg\J
.	.	16gg\JJ	16gg\JJ	.	.	.	.	.	.	.	.	.	.	.	.
!	!	!	!LO:LB:g=original	!	!	!	!	!	!	!	!	!	!	!	!
=55	=55	=55	=55	=55	=55	=55	=55	=55	=55	=55	=55	=55	=55	=55	=55
8F\L	.	16ff\LL	16ff\LL	8F\	-ia	8f,\	-ia	8a,\	-ia	8a,\	-ia	8cc\	-ia	8cc\L	16ff\LL
.	.	16aa\	16aa\	.	.	.	.	.	.	.	.	.	.	.	16gg\
*	*	*	*	*	*	*	*	*	*	*	*	*	*ij	*	*
16D\L	.	16aa\	16aa\	(>16D\LL	al-	8f\	al-	8a\	al-	8dd\	al-	8ff\	al-	16dd\L	16ff\
16E-\JJ	.	16aa\JJ	16aa\JJ	16E-\JJ)	.	.	.	.	.	.	.	.	.	16cc\JJ	16ee-\JJ
!	!	!	!	!	!	!	!	!	!	!	!	!	!	!	!LO:LB:g=original
!	!	!	!	!	!	!LO:LB:g=original	!	!	!	!	!	!	!	!	!
8F\L	.	16aa\LL	16aa\LL	8F\	-le-	8f\	-le-	8a\	-le-	8dd\	-le-	8ff\	-le-	8dd\L	8dd\L
.	.	16aa\	16aa\	.	.	.	.	.	.	.	.	.	.	.	.
8D\J	.	16aa\	16aa\	8D\	-lu-	8F/	-lu-	8a\	-lu-	8dd\	-lu-	8ff\	-lu-	8cc\J	8ff\J
.	.	16aa\JJ	16aa\JJ	.	.	.	.	.	.	.	.	.	.	.	.
!LO:TX:a:t=P:problem:mixed beam	!	!	!	!	!	!	!	!	!	!	!	!	!	!	!
!	!	!LO:LB:g=original	!	!	!	!	!	!	!	!	!	!LO:LB:g=original	!	!	!
8G\L	X -	16gg\LL	16gg\LL	8G\	-ja	8B-,\	-ia	8g,\	-ia	8b-\	-ia	8dd,\	-ia	8dd\L	8gg\L
*	*	*	*	*	*	*	*	*	*	*	*Xij	*	*	*	*
.	.	16bb-\	16bb-\	.	.	.	.	.	.	.	.	.	.	.	.
8E-\	6 5	16bb-\	16bb-\	8E-\	al-	8c\	al-	8g\	al-	(>16g\LL	al-	8cc\	al-	8cc\	8gg\J
.	.	16bb-\JJ	16bb-\JJ	.	.	.	.	.	.	16a\JJ)	.	.	.	.	.
!	!	!	!	!LO:LB:g=original	!	!	!	!	!	!	!	!	!	!	!
8F\	5 4	16aa\LL	16aa\LL	8F\	-le-	8B-\	-le-	8.f\	-le-	8b-\	-le-	8dd\	-le-	8.cc\	8.ff\L
.	.	16aa\	16aa\	.	.	.	.	.	.	.	.	.	.	.	.
8FF/J	X 3	16aa\	16aa\	8FF/	-lu-	8c\	-lu-	.	.	8a\	-lu-	(>16cc\LL	-lu-	.	.
.	.	16aa\JJ	16aa\JJ	.	.	.	.	16f\	-lu-	.	.	16b-\JJ)	.	16cc\Jk	16ff\Jk
!	!	!	!	!	!	!	!	!	!	!	!	!	!	!LO:LB:g=original	!
!	!	!	!	!	!	!	!	!	!	!LO:LB:g=original	!	!	!	!	!
=56	=56	=56	=56	=56	=56	=56	=56	=56	=56	=56	=56	=56	=56	=56	=56
!LO:TX:a:t=P:problem:mixed beam	!	!	!	!	!	!	!	!	!	!	!	!	!	!	!
8BB-/L	.	16bb-\LL	16bb-\LL	8BB-/	-ja	8d,\	-ia	8f,\	-ia	8b-,\	-ja	8b-\	-ia	8dd\L	8ff\L
.	.	16ff\	16ff\	.	.	.	.	.	.	.	.	.	.	.	.
*	*	*	*	*	*ij	*	*	*	*	*	*ij	*	*	*	*
!	!	!	!	!	!	!	!	!LO:PB:g=original	!	!	!	!	!	!	!
8B-\	.	16ff\	16ff\	8B-\	al-	8d\	al-	8f\	al-	8b-\	al-	8ff\	al-	8b-\	8dd\
.	.	16ff\JJ	16ff\JJ	.	.	.	.	.	.	.	.	.	.	.	.
8A\	.	16ff\LL	16ff\LL	8A\	-le-	8c\	-le-	8f\	-le-	8cc\	-le-	8ff\	-le-	8cc\	8ee-\
.	.	16dd\	16ff\	.	.	.	.	.	.	.	.	.	.	.	.
8B-\J	.	16dd\	16ff\	8B-\	-lu-	8d\	-lu-	8f\	-lu-	8b-\	-lu-	8ff\	-lu-	8dd\J	8ff\J
.	.	16dd\JJ	16ff\JJ	.	.	.	.	.	.	.	.	.	.	.	.
8G\L	X -	16dd\LL	16gg\LL	8G,\	-ja	8B-,\	-ia	8g,\	-ia	8b-,\	-ja	8dd,\	-ia	8b-\L	8gg\L
*	*	*	*	*	*Xij	*	*Xij	*	*Xij	*	*Xij	*	*Xij	*	*
.	.	16dd\	16ff\	.	.	.	.	.	.	.	.	.	.	.	.
8D\	X 6	16dd\	16ff\	8D/	al-	8B-\	al-	8f\	Al-	8b-\	al-	(>16dd\LL	al-	8dd\	8ff\
.	.	16dd\JJ	16ff\JJ	.	.	.	.	.	.	.	.	16cc\JJ)	.	.	.
8E-\	6 5	16gg\LL	16gg\LL	8E-\	-le-	8c\	-le-	8g\	-le-	8b-\	-le-	8dd\	-le-	8.cc\	8gg\
.	.	16gg\	16gg\	.	.	.	.	.	.	.	.	.	.	.	.
8F\J	.	16ff\	16aa\	8F\	-lu-	8c\	-lu-	8f\	-lu-	8a\	-lu-	(>16cc\LL	-lu-	.	8ff\J
.	.	16ff\JJ	16aa\JJ	.	.	.	.	.	.	.	.	16b-\JJ)	.	16cc\Jk	.
=57	=57	=57	=57	=57	=57	=57	=57	=57	=57	=57	=57	=57	=57	=57	=57
*^	*	*	*	*	*	*	*	*	*	*	*	*	*	*	*
!LO:TX:a:t=P:problem:mixed beam	!	!	!LO:TX:a:i:t=Finis	!	!	!	!	!	!LO:TX:a:i:t=Finis	!	!LO:TX:a:i:t=Finis	!	!	!	!	!
!LO:TX:b:t=Finis	!	!	!	!LO:TX:b:i:t=finis	!LO:TX:a:i:t=Finis	!	!LO:TX:a:i:t=Finis	!	!	!	!	!	!LO:TX:b:i:t=Finis	!	!	!
8BB-;/L	4BB-;\	.	4ff;;\	4bb-;;\	4BB-;;/	-ia	4d;;\	-ia	4f;;\	-ia	4b-;;\	-ia:	4b-;;\	-ia	4dd\	4ff\
8B-\	.	.	.	.	.	.	.	.	.	.	.	.	.	.	.	.
!LO:TX:b:t=Solo	!	!	!	!	!	!	!	!	!	!	!	!	!	!	!	!
8A\	4ryy	X 6/	4r	4r	4r	.	4r	.	4r	.	4r	.	4r	.	4r	4r
8G\J	.	x -	.	.	.	.	.	.	.	.	.	.	.	.	.	.
!	!	!	!	!LO:TX:a:t=ſolo	!	!	!LO:TX:b:t=Verte	!	!	!	!	!	!	!	!	!LO:TX:a:i:t=Finis
!	!	!	!	!	!	!	!	!	!	!	!	!	!	!	!	!LO:TX:a:t=P:problem:w źródle fermata pod i nad pauzą; druga fermata, choć jest zakodowana, nie wyświetla się
4F#X\	4ryy	X 6	16r	16r	2r	.	2r	.	2r	.	2r	.	2r	.	2r	2r;;
.	.	.	16b-/LL	16dd\LL	.	.	.	.	.	.	.	.	.	.	.	.
.	.	.	16a/	16cc\	.	.	.	.	.	.	.	.	.	.	.	.
.	.	.	16g/JJ	16b-\JJ	.	.	.	.	.	.	.	.	.	.	.	.
8r	4ryy	.	16f#X/LL	16a/LL	.	.	.	.	.	.	.	.	.	.	.	.
.	.	.	16g/	16b-/	.	.	.	.	.	.	.	.	.	.	.	.
8G\	.	X -	16f#/	16a/	.	.	.	.	.	.	.	.	.	.	.	.
!	!	!	!LO:SIC:s=16en	!	!	!	!	!	!	!	!	!	!	!	!	!
.	.	.	16e-/JJ	16g/JJ	.	.	.	.	.	.	.	.	.	.	.	.
*v	*v	*	*	*	*	*	*	*	*	*	*	*	*	*	*	*
!LO:LB:g=original	!	!	!	!	!	!LO:PB:g=original	!	!	!	!	!	!	!	!	!
=58-	=58-	=58	=58	=58	=58-	=58	=58	=58	=58-	=58-	=58	=58-	=58	=58-	=58
4D/	X #	8d/L	16f#X/LL	0r	.	0r	.	00r	.	00r	.	00r	.	00r	00r
.	.	.	16d/	.	.	.	.	.	.	.	.	.	.	.	.
.	.	8d/J	16d/	.	.	.	.	.	.	.	.	.	.	.	.
.	.	.	16f#/JJ	.	.	.	.	.	.	.	.	.	.	.	.
8r	.	4d/	16f#X/LL	.	.	.	.	.	.	.	.	.	.	.	.
.	.	.	16d/	.	.	.	.	.	.	.	.	.	.	.	.
8D/	X #	.	16d/	.	.	.	.	.	.	.	.	.	.	.	.
.	.	.	16f#/JJ	.	.	.	.	.	.	.	.	.	.	.	.
4GG/	.	8r	16g/LL	.	.	.	.	.	.	.	.	.	.	.	.
.	.	.	16d/	.	.	.	.	.	.	.	.	.	.	.	.
.	.	8d/	16d/	.	.	.	.	.	.	.	.	.	.	.	.
.	.	.	16g/JJ	.	.	.	.	.	.	.	.	.	.	.	.
!	!	!	!LO:LB:g=original	!	!	!	!	!	!	!	!	!	!	!	!
8r	.	4d/	16g/LL	.	.	.	.	.	.	.	.	.	.	.	.
.	.	.	16d/	.	.	.	.	.	.	.	.	.	.	.	.
8G\	.	.	16d/	.	.	.	.	.	.	.	.	.	.	.	.
.	.	.	16g/JJ	.	.	.	.	.	.	.	.	.	.	.	.
=59	=59	=59	=59	=59	=59	=59	=59	=59	=59	=59	=59	=59	=59	=59	=59
4D/	X #	16f#X/LL	16a/LL	.	.	.	.	.	.	.	.	.	.	.	.
.	.	16d/	16f#X/	.	.	.	.	.	.	.	.	.	.	.	.
.	.	16d/	16f#/	.	.	.	.	.	.	.	.	.	.	.	.
!	!	!LO:TX:a:t=P:problem:partia urywa się w tym miejscu	!	!	!	!	!	!	!	!	!	!	!	!	!
.	.	16f#/JJ	16a/JJ	.	.	.	.	.	.	.	.	.	.	.	.
8r	.	4ryy	16a/LL	.	.	.	.	.	.	.	.	.	.	.	.
.	.	.	16f#X/	.	.	.	.	.	.	.	.	.	.	.	.
8D/	.	.	16f#/	.	.	.	.	.	.	.	.	.	.	.	.
.	.	.	16a/JJ	.	.	.	.	.	.	.	.	.	.	.	.
4GG/	X -	2ryy	16b-/LL	.	.	.	.	.	.	.	.	.	.	.	.
.	.	.	16g/	.	.	.	.	.	.	.	.	.	.	.	.
.	.	.	16g/	.	.	.	.	.	.	.	.	.	.	.	.
.	.	.	16b-/JJ	.	.	.	.	.	.	.	.	.	.	.	.
8rBB	.	.	16b-/LL	.	.	.	.	.	.	.	.	.	.	.	.
.	.	.	16g/	.	.	.	.	.	.	.	.	.	.	.	.
8G\	.	.	16g/	.	.	.	.	.	.	.	.	.	.	.	.
.	.	.	16b-/JJ	.	.	.	.	.	.	.	.	.	.	.	.
=60	=60	=60	=60	=60	=60	=60	=60	=60	=60	=60	=60	=60	=60	=60	=60
4GG/	.	1ryy	16dd\LL	1r	.	1r	.	.	.	.	.	.	.	.	.
.	.	.	16b-\	.	.	.	.	.	.	.	.	.	.	.	.
.	.	.	16b-\	.	.	.	.	.	.	.	.	.	.	.	.
.	.	.	16dd\JJ	.	.	.	.	.	.	.	.	.	.	.	.
8r	.	.	16dd\LL	.	.	.	.	.	.	.	.	.	.	.	.
.	.	.	16b-\	.	.	.	.	.	.	.	.	.	.	.	.
8G\	.	.	16b-\	.	.	.	.	.	.	.	.	.	.	.	.
.	.	.	16dd\JJ	.	.	.	.	.	.	.	.	.	.	.	.
4G\	4 2	.	16gg\LL	.	.	.	.	.	.	.	.	.	.	.	.
.	.	.	16a\	.	.	.	.	.	.	.	.	.	.	.	.
.	.	.	16a\	.	.	.	.	.	.	.	.	.	.	.	.
.	.	.	16gg\JJ	.	.	.	.	.	.	.	.	.	.	.	.
8r	.	.	16ff#X\LL	.	.	.	.	.	.	.	.	.	.	.	.
.	.	.	16a\	.	.	.	.	.	.	.	.	.	.	.	.
8D/	X #	.	16a\	.	.	.	.	.	.	.	.	.	.	.	.
.	.	.	16ff#\JJ	.	.	.	.	.	.	.	.	.	.	.	.
=61	=61	=61	=61	=61-	=61	=61-	=61	=61	=61	=61	=61	=61	=61	=61	=61
4GG/	.	1ryy	4gg\	2r	.	8r	.	.	.	.	.	.	.	.	.
.	.	.	.	.	.	(<16G/LL	Coe-	.	.	.	.	.	.	.	.
.	.	.	.	.	.	16A/JJ)	.	.	.	.	.	.	.	.	.
8r	.	.	4r	.	.	8B-\	-lo-	.	.	.	.	.	.	.	.
8G\	.	.	.	.	.	16A\	-que	.	.	.	.	.	.	.	.
.	.	.	.	.	.	16G/	a-	.	.	.	.	.	.	.	.
!	!	!	!	!LO:TX:a:i:t=Solo	!	!	!	!	!	!	!	!	!	!	!
4G\	4 2	.	2r	8r	.	8c\	-per-	.	.	.	.	.	.	.	.
.	.	.	.	8c\	Coe-	8c\	-to	.	.	.	.	.	.	.	.
8r	.	.	.	8d\	-lo-	4r	.	.	.	.	.	.	.	.	.
8D/	X #	.	.	16c\	-que	.	.	.	.	.	.	.	.	.	.
.	.	.	.	16d\	a-	.	.	.	.	.	.	.	.	.	.
!	!	!	!	!LO:LB:g=original	!	!	!	!	!	!	!	!	!	!	!
=62	=62	=62	=62	=62	=62	=62-	=62	=62	=62	=62	=62	=62	=62	=62	=62
4GG/	.	1ryy	16r	8B-\	-per-	1r	.	00r	.	00r	.	00r	.	00r	00r
.	.	.	16gg\LL	.	.	.	.	.	.	.	.	.	.	.	.
.	.	.	16gg\	8G\	-to	.	.	.	.	.	.	.	.	.	.
.	.	.	16dd\JJ	.	.	.	.	.	.	.	.	.	.	.	.
8r	.	.	16dd\LL	4r	.	.	.	.	.	.	.	.	.	.	.
.	.	.	16b-\	.	.	.	.	.	.	.	.	.	.	.	.
8G\	.	.	16b-\	.	.	.	.	.	.	.	.	.	.	.	.
.	.	.	16gg\JJ	.	.	.	.	.	.	.	.	.	.	.	.
4C/	6 5	.	16gg\LL	2r	.	.	.	.	.	.	.	.	.	.	.
.	.	.	16a\	.	.	.	.	.	.	.	.	.	.	.	.
.	.	.	16a\	.	.	.	.	.	.	.	.	.	.	.	.
.	.	.	16gg\JJ	.	.	.	.	.	.	.	.	.	.	.	.
8r	.	.	16gg\LL	.	.	.	.	.	.	.	.	.	.	.	.
.	.	.	16a\	.	.	.	.	.	.	.	.	.	.	.	.
8D/	X #	.	16a\	.	.	.	.	.	.	.	.	.	.	.	.
.	.	.	16ff#X\JJ	.	.	.	.	.	.	.	.	.	.	.	.
!	!	!	!LO:LB:g=original	!	!	!	!	!	!	!	!	!	!	!	!
=63	=63	=63	=63	=63	=63	=63-	=63	=63	=63	=63	=63	=63	=63	=63	=63
!	!	!	!LO:TX:a:t=P:problem:mixed beam	!	!	!	!	!	!	!	!	!	!	!	!
4GG/	.	1ryy	8gg\L	2r	.	8r	.	.	.	.	.	.	.	.	.
.	.	.	8g/J	.	.	(<16G/LL	Coe-	.	.	.	.	.	.	.	.
.	.	.	.	.	.	16A/JJ)	.	.	.	.	.	.	.	.	.
!LO:LB:g=original	!	!	!	!	!	!	!	!	!	!	!	!	!	!	!
8r	.	.	4r	.	.	8B-\	-lo-	.	.	.	.	.	.	.	.
8G\	.	.	.	.	.	16A\	-que	.	.	.	.	.	.	.	.
.	.	.	.	.	.	16G/	a-	.	.	.	.	.	.	.	.
4F#X\	X 6	.	2r	8r	.	8d\	-per-	.	.	.	.	.	.	.	.
.	.	.	.	8d\	Coe-	8d\	-to	.	.	.	.	.	.	.	.
8r	.	.	.	8d\	-lo-	4r	.	.	.	.	.	.	.	.	.
8D/	X #	.	.	16c\	-que	.	.	.	.	.	.	.	.	.	.
.	.	.	.	16d\	a-	.	.	.	.	.	.	.	.	.	.
=64	=64	=64	=64	=64	=64	=64	=64	=64	=64	=64	=64	=64	=64	=64	=64
4G\	X -	1ryy	1r	8B-\	-per-	4r	.	.	.	.	.	.	.	.	.
.	.	.	.	8G\	-to	.	.	.	.	.	.	.	.	.	.
8r	.	.	.	8B-\	ſub-	8d\	ſub-	.	.	.	.	.	.	.	.
!	!	!	!	!	!	!LO:LB:g=original	!	!	!	!	!	!	!	!	!
8G\	.	.	.	16A\	-di-	16c\	-di-	.	.	.	.	.	.	.	.
.	.	.	.	16G\	-tum	16B-\	-tum	.	.	.	.	.	.	.	.
4C/	.	.	.	8c\	Re-	8e-\	Re-	.	.	.	.	.	.	.	.
.	.	.	.	8B-\	-gem	8d\	-gem	.	.	.	.	.	.	.	.
8r	.	.	.	16A\	te-	16c\	te-	.	.	.	.	.	.	.	.
.	.	.	.	16B-\	-ne-	16d\	-ne-	.	.	.	.	.	.	.	.
8F\	.	.	.	16c\	-bra-	16e-\	-bra-	.	.	.	.	.	.	.	.
.	.	.	.	16A\	-rum	16f\	-rum	.	.	.	.	.	.	.	.
!	!	!	!	!LO:LB:g=original	!	!	!	!	!	!	!	!	!	!	!
=65	=65	=65	=65-	=65	=65	=65	=65	=65	=65	=65	=65	=65	=65	=65	=65
4BB-/	.	1ryy	16r	8B-\	tra-	8d\	tra-	.	.	.	.	.	.	.	.
.	.	.	16bb-\LL	.	.	.	.	.	.	.	.	.	.	.	.
.	.	.	16bb-\	8B-\	-hit	8B-\	-hit	.	.	.	.	.	.	.	.
.	.	.	16ff\JJ	.	.	.	.	.	.	.	.	.	.	.	.
8r	.	.	16ff\LL	4r	.	4r	.	.	.	.	.	.	.	.	.
.	.	.	16dd\	.	.	.	.	.	.	.	.	.	.	.	.
8BB-/	.	.	16dd\	.	.	.	.	.	.	.	.	.	.	.	.
.	.	.	16ff\JJ	.	.	.	.	.	.	.	.	.	.	.	.
4E-\	.	.	16gg\LL	2r	.	2r	.	.	.	.	.	.	.	.	.
.	.	.	16ee-\	.	.	.	.	.	.	.	.	.	.	.	.
.	.	.	16ee-\	.	.	.	.	.	.	.	.	.	.	.	.
.	.	.	16gg\JJ	.	.	.	.	.	.	.	.	.	.	.	.
8r	.	.	16gg\LL	.	.	.	.	.	.	.	.	.	.	.	.
.	.	.	16ee-\	.	.	.	.	.	.	.	.	.	.	.	.
8C/	.	.	16ee-\	.	.	.	.	.	.	.	.	.	.	.	.
.	.	.	16gg\JJ	.	.	.	.	.	.	.	.	.	.	.	.
=66	=66	=66	=66	=66-	=66	=6	=66	=66	=66	=66	=66	=66	=66	=66	=66
4F\	X 7	1ryy	16ee-\LL	0r	.	0r	.	00r	.	00r	.	00r	.	00r	00r
.	.	.	16cc\	.	.	.	.	.	.	.	.	.	.	.	.
.	.	.	16cc\	.	.	.	.	.	.	.	.	.	.	.	.
.	.	.	16ee-\JJ	.	.	.	.	.	.	.	.	.	.	.	.
8r	.	.	16ee-\LL	.	.	.	.	.	.	.	.	.	.	.	.
.	.	.	16cc\	.	.	.	.	.	.	.	.	.	.	.	.
8F\	.	.	16cc\	.	.	.	.	.	.	.	.	.	.	.	.
.	.	.	16ee-\JJ	.	.	.	.	.	.	.	.	.	.	.	.
4A\	.	.	16cc\LL	.	.	.	.	.	.	.	.	.	.	.	.
.	.	.	16a\	.	.	.	.	.	.	.	.	.	.	.	.
.	.	.	16a\	.	.	.	.	.	.	.	.	.	.	.	.
.	.	.	16cc\JJ	.	.	.	.	.	.	.	.	.	.	.	.
8r	.	.	16cc\LL	.	.	.	.	.	.	.	.	.	.	.	.
.	.	.	16a\	.	.	.	.	.	.	.	.	.	.	.	.
8A\	.	.	16a\	.	.	.	.	.	.	.	.	.	.	.	.
.	.	.	16cc\JJ	.	.	.	.	.	.	.	.	.	.	.	.
=67	=67	=67	=67	=67	=67	=67	=67	=67	=67	=67	=67	=67	=67	=67	=67
4AA/	6 5-	1ryy	4e-/	.	.	.	.	.	.	.	.	.	.	.	.
8r	.	.	16r	.	.	.	.	.	.	.	.	.	.	.	.
.	.	.	16ff\LL	.	.	.	.	.	.	.	.	.	.	.	.
8F\	.	.	16ff\	.	.	.	.	.	.	.	.	.	.	.	.
.	.	.	16cc\JJ	.	.	.	.	.	.	.	.	.	.	.	.
4FF/	.	.	16cc\LL	.	.	.	.	.	.	.	.	.	.	.	.
.	.	.	16a\	.	.	.	.	.	.	.	.	.	.	.	.
.	.	.	16a\	.	.	.	.	.	.	.	.	.	.	.	.
.	.	.	16cc\JJ	.	.	.	.	.	.	.	.	.	.	.	.
8r	.	.	16a/LL	.	.	.	.	.	.	.	.	.	.	.	.
.	.	.	16f/	.	.	.	.	.	.	.	.	.	.	.	.
8FF/	.	.	16f/	.	.	.	.	.	.	.	.	.	.	.	.
.	.	.	16a/JJ	.	.	.	.	.	.	.	.	.	.	.	.
=68	=68	=68	=68	=68-	=68	=68-	=68	=68	=68	=68	=68	=68	=68	=68	=68
4BB-/	.	1ryy	8b-/L	2r	.	4r	.	.	.	.	.	.	.	.	.
.	.	.	8B-/J	.	.	.	.	.	.	.	.	.	.	.	.
8r	.	.	4r	.	.	8d\	ſub-	.	.	.	.	.	.	.	.
8BB-/	.	.	.	.	.	16c\	-di-	.	.	.	.	.	.	.	.
.	.	.	.	.	.	16d\	-tum	.	.	.	.	.	.	.	.
4GG/	.	.	2r	8B-\	ſub-	8B-\	Re-	.	.	.	.	.	.	.	.
.	.	.	.	16A\	-di-	8B-\	-gem	.	.	.	.	.	.	.	.
.	.	.	.	16B-\	-tum	.	.	.	.	.	.	.	.	.	.
*	*	*	*	*	*	*	*ij	*	*	*	*	*	*	*	*
!LO:LB:g=original	!	!	!	!	!	!LO:LB:g=original	!	!	!	!	!	!	!	!	!
8r	.	.	.	8G\	Re-	8e-\	ſub-	.	.	.	.	.	.	.	.
8C/	.	.	.	8G\	-gem	16d\	-di-	.	.	.	.	.	.	.	.
.	.	.	.	.	.	16e-\	-tum	.	.	.	.	.	.	.	.
!	!	!	!LO:LB:g=original	!	!	!	!	!	!	!	!	!	!	!	!
=69	=69	=69	=69	=69	=69	=69	=69	=69	=69	=69	=69	=69	=69	=69	=69
*	*	*	*	*	*ij	*	*	*	*	*	*	*	*	*	*
4AA/	X 6	1ryy	0r	8c\	ſub-	8c\	Re-	.	.	.	.	.	.	.	.
.	.	.	.	16B-\	-di-	8c,\	-gem	.	.	.	.	.	.	.	.
.	.	.	.	16c\	-tum	.	.	.	.	.	.	.	.	.	.
8r	.	.	.	8A\	Re-	8f\	ſub-	.	.	.	.	.	.	.	.
8FF/	.	.	.	8A,\	-gem	16e-\	-di-	.	.	.	.	.	.	.	.
*	*	*	*	*	*Xij	*	*	*	*	*	*	*	*	*	*
.	.	.	.	.	.	16f\	-tum	.	.	.	.	.	.	.	.
4BB-/	.	.	.	8B-\	Re-	8d\	Re-	.	.	.	.	.	.	.	.
.	.	.	.	8D/	-gem	8d,\	-gem	.	.	.	.	.	.	.	.
*	*	*	*	*	*	*	*Xij	*	*	*	*	*	*	*	*
8r	.	.	.	16E-\	te-	16c\	te-	.	.	.	.	.	.	.	.
.	.	.	.	16E-\	-ne-	16d\	-ne-	.	.	.	.	.	.	.	.
!	!	!	!	!LO:LB:g=original	!	!	!	!	!	!	!	!	!	!	!
8F\	.	.	.	16F\	-bra-	16B-\	-bra-	.	.	.	.	.	.	.	.
.	.	.	.	16F\	-rum	16c\	-rum	.	.	.	.	.	.	.	.
=70	=70	=70	=70	=70	=70	=70	=70	=70	=70	=70	=70	=70	=70	=70	=70
4BB-/	.	1ryy	.	8BB-/	tra-	8d\	tra-	00r	.	00r	.	00r	.	00r	00r
.	.	.	.	8BB-/	-hit	8B-\	-hit	.	.	.	.	.	.	.	.
8r	.	.	.	4r	.	8d\	ſub-	.	.	.	.	.	.	.	.
8B-\	.	.	.	.	.	16c\	-di-	.	.	.	.	.	.	.	.
.	.	.	.	.	.	16d\	-tum	.	.	.	.	.	.	.	.
!	!	!	!	!	!	!LO:LB:g=original	!	!	!	!	!	!	!	!	!
4G\	X -	.	.	8G\	ſub-	8B-\	Re-	.	.	.	.	.	.	.	.
.	.	.	.	16F\	-di-	8B-\	-gem	.	.	.	.	.	.	.	.
.	.	.	.	16G\	-tum	.	.	.	.	.	.	.	.	.	.
8r	.	.	.	8E-\	Re-	8c\	ſub-	.	.	.	.	.	.	.	.
8C/	.	.	.	8E-\	-gem	16B-\	-di-	.	.	.	.	.	.	.	.
.	.	.	.	.	.	16c\	-tum	.	.	.	.	.	.	.	.
=71	=71	=71	=71	=71	=71	=71	=71	=71	=71	=71	=71	=71	=71	=71	=71
4D/	X #	1ryy	1r	8F#X\	ſub-	8A/	re-	.	.	.	.	.	.	.	.
.	.	.	.	16En\	-di-	8A/	-gem	.	.	.	.	.	.	.	.
.	.	.	.	16F#X\	-tum	.	.	.	.	.	.	.	.	.	.
*	*	*	*	*	*	*	*ij	*	*	*	*	*	*	*	*
8r	.	.	.	8B-\	ſub-	8d\	ſub-	.	.	.	.	.	.	.	.
8G\	X -	.	.	16A\	-di-	16c\	-di-	.	.	.	.	.	.	.	.
.	.	.	.	16B-\	-tum	16d\	-tum	.	.	.	.	.	.	.	.
!	!	!	!	!LO:LB:g=original	!	!	!	!	!	!	!	!	!	!	!
4C/	.	.	.	8c\	Re-	8e-\	re-	.	.	.	.	.	.	.	.
.	.	.	.	8E\	-gem	8c,\	-gem	.	.	.	.	.	.	.	.
*	*	*	*	*	*	*	*Xij	*	*	*	*	*	*	*	*
8r	.	.	.	16D/	te-	16B-\	te-	.	.	.	.	.	.	.	.
.	.	.	.	16D/	-ne-	16B-\	-ne-	.	.	.	.	.	.	.	.
8D/	X #	.	.	16C/	-bra-	16A/	-bra-	.	.	.	.	.	.	.	.
.	.	.	.	16D/	-rum	16B-\	-rum	.	.	.	.	.	.	.	.
!	!	!	!	!	!	!LO:LB:g=original	!	!	!	!	!	!	!	!	!
=72	=72	=72	=72-	=72	=72	=72	=72	=72	=72	=72	=72	=72	=72	=72	=72
4GG/	X -	1ryy	16r	8GG/	tra-	8G/	tra-	.	.	.	.	.	.	.	.
.	.	.	16gg\LL	.	.	.	.	.	.	.	.	.	.	.	.
.	.	.	16gg\	8GG/	-hit	8G/	-hit	.	.	.	.	.	.	.	.
.	.	.	16dd\JJ	.	.	.	.	.	.	.	.	.	.	.	.
8r	.	.	16dd\LL	4r	.	4r	.	.	.	.	.	.	.	.	.
.	.	.	16b-\	.	.	.	.	.	.	.	.	.	.	.	.
8G\	.	.	16b-\	.	.	.	.	.	.	.	.	.	.	.	.
.	.	.	16gg\JJ	.	.	.	.	.	.	.	.	.	.	.	.
4C/	X 6	.	16ee-\LL	2r	.	2r	.	.	.	.	.	.	.	.	.
.	.	.	16cc\	.	.	.	.	.	.	.	.	.	.	.	.
.	.	.	16cc\	.	.	.	.	.	.	.	.	.	.	.	.
.	.	.	16ee-\JJ	.	.	.	.	.	.	.	.	.	.	.	.
8r	.	.	16cc\LL	.	.	.	.	.	.	.	.	.	.	.	.
.	.	.	16a\	.	.	.	.	.	.	.	.	.	.	.	.
8C/	6 5	.	16a\	.	.	.	.	.	.	.	.	.	.	.	.
.	.	.	16cc\JJ	.	.	.	.	.	.	.	.	.	.	.	.
=73	=73	=73	=73	=73-	=73	=73-	=73	=73	=73	=73	=73	=73	=73	=73	=73
4D/	7 #	1ryy	4c/	0r	.	0r	.	.	.	.	.	.	.	.	.
8r	.	.	16r	.	.	.	.	.	.	.	.	.	.	.	.
.	.	.	16dd\LL	.	.	.	.	.	.	.	.	.	.	.	.
8D/	X #	.	16dd\	.	.	.	.	.	.	.	.	.	.	.	.
.	.	.	16a\JJ	.	.	.	.	.	.	.	.	.	.	.	.
!LO:LB:g=original	!	!	!LO:TX:a:t=P:problem:mixed beam	!	!	!	!	!	!	!	!	!	!	!	!
4G\	X -	.	16b-\LL	.	.	.	.	.	.	.	.	.	.	.	.
.	.	.	16d/	.	.	.	.	.	.	.	.	.	.	.	.
.	.	.	16d/	.	.	.	.	.	.	.	.	.	.	.	.
.	.	.	16b-/JJ	.	.	.	.	.	.	.	.	.	.	.	.
8r	.	.	16a/LL	.	.	.	.	.	.	.	.	.	.	.	.
.	.	.	16d/	.	.	.	.	.	.	.	.	.	.	.	.
8D/	X #	.	16d/	.	.	.	.	.	.	.	.	.	.	.	.
.	.	.	16f#X/JJ	.	.	.	.	.	.	.	.	.	.	.	.
=74	=74	=74	=74	=74	=74	=74	=74	=74	=74	=74	=74	=74	=74	=74	=74
4GG/	X -	1ryy	16g/LL	.	.	.	.	1r	.	1r	.	1r	.	1r	1r
.	.	.	16d/	.	.	.	.	.	.	.	.	.	.	.	.
.	.	.	16d/	.	.	.	.	.	.	.	.	.	.	.	.
.	.	.	16c/JJ	.	.	.	.	.	.	.	.	.	.	.	.
8r	.	.	16c/LL	.	.	.	.	.	.	.	.	.	.	.	.
.	.	.	16B-/	.	.	.	.	.	.	.	.	.	.	.	.
8D\	X #	.	16B-/	.	.	.	.	.	.	.	.	.	.	.	.
.	.	.	16A/JJ	.	.	.	.	.	.	.	.	.	.	.	.
8GG/L	X n	.	4G/	.	.	.	.	.	.	.	.	.	.	.	.
8FF/	.	.	.	.	.	.	.	.	.	.	.	.	.	.	.
!	!	!	!LO:TX:b:t=Da capo	!	!	!	!	!	!	!	!	!	!	!	!
8GG/	.	.	4r	.	.	.	.	.	.	.	.	.	.	.	.
!LO:TX:b:i:t=Da Capo.	!	!	!	!	!	!	!	!	!	!	!	!	!	!	!
8AA/J	.	.	.	.	.	.	.	.	.	.	.	.	.	.	.
!	!	!	!	!LO:TX:a:t=P:problem:w źródle "Da Capo" zapisane na pięciolinii	!	!LO:TX:a:t=P:problem:w źródle "Da Capo" zapisane na pięciolinii	!	!LO:TX:a:t=P:problem:w źródle "Da Capo" zapisane na pięciolinii	!	!LO:TX:a:t=P:problem:w źródle "Da Capo" zapisane na pięciolinii	!	!LO:TX:a:t=P:problem:w źródle "Da Capo" zapisane na pięciolinii	!	!LO:TX:a:t=P:problem:w źródle "Da Capo" zapisane na pięciolinii	!LO:TX:a:t=P:problem:w źródle "Da Capo" zapisane na pięciolinii
!	!	!	!	!LO:TX:b:t=Da Capo	!	!LO:TX:b:t=Da Capo	!	!LO:TX:b:t=Da Capo	!	!LO:TX:b:t=Da Capo	!	!LO:TX:b:t=Da Capo	!	!LO:TX:b:t=Da Capo	!LO:TX:b:t=Da Capo
==	==	==	==	==	==	==	==	==	==	==	==	==	==	==	==
*-	*-	*-	*-	*-	*-	*-	*-	*-	*-	*-	*-	*-	*-	*-	*-
!!!system-decoration: [g1][g2][g3]s10
!!!RDF**kern: > = above
!!!RDF**kern: < = below
!!!ENC: Krzysztof Stępień
!!!END: 2020-05-14
!!!EED: Antoni Szymański
!!!EST: 2020-11-08
